!!!!SEGMENT: pl-kk--kk-i-625--001-005_lisinski-karol--vesperae-ex-a-in-exitu.krn
!!!cenid: 18xx:4604
!!!COM: Lisiński, Karol
!!!COM-rismID: pe50053612
!!!CDT:
!!!CNT: Polish
!!!OPR: Vesperae ex A
!!!OTL: In exitu
!!!OMV: 005
!!!PDT:
!!!AGN: Sacred; Vespers
!!!YEC: Copyright 2022 Narodowy Instytut Fryderyka Chopina (https://polishscores.org)
!!!YEM: License CC-BY-4.0 (https://creativecommons.org/licenses/by/4.0)
!!!SMS-siglum: PL-Kk
!!!SMS-shelfmark: Kk.I.625
!!!SMS-variant: Violino Primo: Kk.I.625: 27-28 ; Violino Secundo: Kk.I.625: 37-38
!!!SMS-altvar: Violino Primo: Kk.I.625: 22-23 ; Violino Secundo: Kk.I.625: 32-33
!!!SMS-shelfwork: 001-005 M
!!!NIFC-rismSourceID: 1001210166
!!!NIFC-rismChildID: 1001210166
!!!NIFC-islandoraID: pl-kk:20012
!!!URL-pdf-islandora: https://repozytorium.nifc.pl/islandora/object/pl-kk:20012/datastream/PDF/view
!!!URL-scan: https://polish.musicsources.pl/pl/lokalizacje/galeria/rekopisy/7259/2 @EN{Scan on Polish Music Sources Website} @PL{Skany w portalu Dziedzictwo Muzyki Polskiej w otwartym dostępie}
!!!IIIF:
!!!ONB-nifc: UWAGA: Części Nieszporów: 1. Dixit Dominus, 2. Confitebor, 3. Beatus vir, 4. Laudate pueri, 5. In exitu, 6. Magnificat. Gloria wchodzi w ramy powyższych części. Uwaga: Partia Organo na skanach 44-46 i 2. Uwaga: Violino Primo i Secondo wg drugich odpisów spisanych ręką tą samą co reszta partii (s. 25-28 i 35-38). Proszę uzupełnić pola SMS:variant i SMS:altvar.
!!!AIN: 1 alto 1 bass 1 canto 2 clrno 1 organ 1 tenor 2 violn
!!!key:
**kern	**fba	**kern	**kern	**kern	**text	**kern	**text	**kern	**text	**kern	**text	**kern	**kern
*part9	*	*part8	*part7	*part6	*part6	*part5	*part5	*part4	*part4	*part3	*part3	*part2	*part1
*staff9	*	*staff8	*staff7	*staff6	*staff6	*staff5	*staff5	*staff4	*staff4	*staff3	*staff3	*staff2	*staff1
*I"Organo	*	*I"Violino Secundo	*I"Violino Primo	*I"Basso	*	*I"Tenore	*	*I"Alto	*	*I"Canto	*	*I"Clarino Secundo	*I"Clarino Primo
*I'Org.	*	*I'Vn II	*I'Vn I	*I'B.	*	*I'T.	*	*I'A.	*	*I'C.	*	*I'Cl. in B♭	*I'Cl. in B♭
*Iorgan	*	*Ivioln	*Ivioln	*Ibass	*	*Itenor	*	*Ialto	*	*Icanto	*	*Iclrno	*Iclrno
*ICklav	*	*ICstr	*ICstr	*ICvox	*	*ICvox	*	*ICvox	*	*ICvox	*	*ICbras	*ICbras
*clefF4	*	*clefG2	*clefG2	*clefF4	*	*clefC4	*	*clefC3	*	*clefC1	*	*clefG2	*clefG2
*	*	*	*	*	*	*	*	*	*	*	*	*ITrd-1c-2	*ITrd-1c-2
*k[f#c#]	*	*k[f#c#]	*k[f#c#]	*k[f#c#]	*	*k[f#c#]	*	*k[f#c#]	*	*k[f#c#]	*	*k[f#c#]	*k[f#c#]
*D:	*	*D:	*D:	*D:	*	*D:	*	*D:	*	*D:	*	*D:	*D:
*M4/4	*	*M4/4	*M4/4	*M4/4	*	*M4/4	*	*M4/4	*	*M4/4	*	*M4/4	*M4/4
*met(c)	*	*met(c)	*met(c)	*met(c)	*	*met(c)	*	*met(c)	*	*met(c)	*	*met(c)	*met(c)
=1	=1	=1	=1	=1	=1	=1	=1	=1	=1	=1	=1	=1	=1
!LO:TX:b:t=In exitu	!	!LO:TX:a:t=Andante	!LO:TX:b:t=In exitu	!	!	!	!	!	!	!	!	!LO:TX:b:t=Inexitu	!LO:TX:b:t=Inexitu.
8D\L	.	16ff#\LL	16dd\LL	8D\L	In	4A\	In	8f#\L	In	4dd\	In	8dd\L	8ff#\L
.	.	16ff#\	16ddd\	.	.	.	.	.	.	.	.	.	.
8E\	.	16ff#\	16ddd\	8E\J	.	.	.	8g\J	.	.	.	16dd\L	16ff#\L
.	.	16ff#\JJ	16ddd\JJ	.	.	.	.	.	.	.	.	16dd\JJ	16ff#\JJ
8F#\	.	16ff#\LL	16ddd\LL	8F#\	e-	8A\	e-	8a\	e-	8dd\	e-	8dd\L	8ff#\L
.	.	16ff#\	16ddd\	.	.	.	.	.	.	.	.	.	.
8D\J	.	16ff#\	16ddd\	16D/	-xi-	16A\	-xi-	16f#\	-xi-	16dd\	-xi-	8dd\J	8ff#\J
.	.	16ff#\JJ	16ddd\JJ	16D/	-tu	16A\	-tu	16f#\	-tu	16dd\	-tu	.	.
8A\L	4	16ee\LL	16ddd\LL	8A\	I-	8A\	I-	8e\	I-	8dd\	I-	8dd\L	8ff#\L
.	.	16ee\	16ccc#\	.	.	.	.	.	.	.	.	.	.
8A\	3	16ee\	16ccc#\	16A\	-sra-	16A\	-sra-	16e\	-sra-	16cc#\	-sra-	8a\	8ee\
.	.	16ee\JJ	16ccc#\JJ	16A\	-el	16A\	-el	16e\	-el	16cc#\	-el	.	.
8A\	.	16ee\LL	16ccc#\LL	8A\	de	8A\	de	8e\	de	8cc#\	de	8a\	8dd\
.	.	16ee\	16ccc#\	.	.	.	.	.	.	.	.	.	.
8F#\J	6	16aa\	16ddd\	8F#\	ae-	[8d\	ae-	8a\	ae-	8dd\	ae-	8ff#\J	8aa\J
.	.	16aa\JJ	16ddd\JJ	.	.	.	.	.	.	.	.	.	.
=2	=2	=2	=2	=2	=2	=2	=2	=2	=2	=2	=2	=2	=2
8G\L	9	16aa\LL	16bb\LL	8G\	-gy-	8d\]	-gy-	(16a\LL	-gi-	8b\	-gy-	16ff#\LL	16aa\LL
.	.	16gg\	16bb\	.	.	.	.	16g\JJ)	.	.	.	16ee\	16gg\
8A\	.	16gg\	16bb\	8A\	-pto	8d\	-pto	(16g\LL	-pto	8cc#\	-pto	16ee\	16gg\
.	.	16gg\JJ	16bb\JJ	.	.	.	.	16f#\JJ)	.	.	.	16ee\JJ	16gg\JJ
8B\	.	16gg\LL	16bb\LL	8B\	do-	8d\	do-	8g\	do-	8dd\	do-	8ee\L	8gg\L
.	.	16gg\	16bb\	.	.	.	.	.	.	.	.	.	.
8c#\J	.	16gg\	16aa\	8c#\	-mus	8A/	-mus	8g\	-mus	8ee\	-mus	8ee\	8gg\
.	.	16gg\JJ	16aa\JJ	.	.	.	.	.	.	.	.	.	.
!LO:TX:a:t=P:problem:mixed beam	!	!	!	!	!	!	!	!	!	!	!	!	!
8d\L	6 4	16gg\LL	16ff#\LL	8d\	Ja-	8A/	Ja-	8g\	Ja-	8a\	Ja-	8ee\	8gg\
.	.	16gg\	16ff#\	.	.	.	.	.	.	.	.	.	.
8D/J	2	16ff#\	16ff#\	8D/	-cob	8A/	-cob	8f#\	-cob	8a\	-cob	8dd\J	8ff#\J
.	.	16ff#\JJ	16ff#\JJ	.	.	.	.	.	.	.	.	.	.
8r	.	16ff#\LL	16ff#\LL	8r	.	8r	.	8r	.	8r	.	8r	8r
.	.	16dd\	16ff#\	.	.	.	.	.	.	.	.	.	.
8d\	.	16dd\	16ff#\	8d\	de	8A/	de	8f#\	de	8dd\	de	8dd\	8ff#\
.	.	16dd\JJ	16ff#\JJ	.	.	.	.	.	.	.	.	.	.
!	!	!	!	!	!	!	!	!	!	!LO:LB:g=original	!	!	!
=3	=3	=3	=3	=3	=3	=3	=3	=3	=3	=3	=3	=3	=3
8B\L	3	16dd\LL	16ff#\LL	8B\L	po-	4B\	po-	4f#\	po-	4dd\	po-	8dd\L	8ff#\L
.	.	16dd\	16ff#\	.	.	.	.	.	.	.	.	.	.
8A\	.	16dd\	16ff#\	8A\J	.	.	.	.	.	.	.	16dd\L	16ff#\L
.	.	16dd\JJ	16ff#\JJ	.	.	.	.	.	.	.	.	16dd\JJ	16ff#\JJ
!	!	!LO:LB:g=original	!	!	!	!	!	!LO:LB:g=original	!	!	!	!	!
8G#X\	6	16dd\LL	16ee\LL	8G#X\	.	8B\	-pu-	8e\	-pu-	8dd\	-pu-	8a/L	8ee\L
.	.	16dd\	16ee\	.	.	.	.	.	.	.	.	.	.
!	!	!	!	!LO:LB:g=original	!	!	!	!	!	!	!	!	!
8E\J	.	16dd\	16gg#X\	16E\	-pu-	8B\	-lo	8e\	-lo	8ee\	-lo	8a/	8ee\J
.	.	16dd\JJ	16gg#\JJ	16E\	-lo	.	.	.	.	.	.	.	.
!LO:TX:a:t=P:problem:mixed beam	!	!	!LO:LB:g=original	!LO:TX:a:t=P:problem:mixed beam	!	!LO:LB:g=original	!	!	!	!	!	!	!
8A\L	.	16cc#\LL	16aa\LL	8A\L	bar-	8A\L	bar-	4e\	bar-	8cc#\L	bar-	8a/	8ee\L
.	.	16cc#\	16aa\	.	.	.	.	.	.	.	.	.	.
8G#X\	.	16cc#\	16aa\	8G#X\	.	8B\J	.	.	.	8b\	.	8a/J	8ee\
.	.	16cc#\JJ	16aa\JJ	.	.	.	.	.	.	.	.	.	.
8A\	.	16cc#\LL	16aa\LL	8A\	.	4A/	.	4a\	.	8cc#\	.	8ee\L	8aa\
.	.	16cc#\	16aa\	.	.	.	.	.	.	.	.	.	.
8C#/J	6	16ee\	16aa\	8C#/J	.	.	.	.	.	8ee\J	.	8ee\J	8aa\J
.	.	16ee\JJ	16aa\JJ	.	.	.	.	.	.	.	.	.	.
=4	=4	=4	=4	=4	=4	=4	=4	=4	=4	=4	=4	=4	=4
8D/L	6 5	16b/LL	8aa\L	8D/L	.	4F#/	.	4a\	.	8b\L	.	8ee\L	8aa\L
.	.	16b/	.	.	.	.	.	.	.	.	.	.	.
8BB/	.	16b/	8bb\	8BB/	.	.	.	.	.	16cc#\L	.	8ee\	8aa\
.	.	16b/JJ	.	.	.	.	.	.	.	16b\JJ	.	.	.
8E/	7	16b/LL	8.gg#X\	8E/J	.	8.E/	.	8.g#X\	.	8.cc#\	.	8.ee\	8.gg#X\
.	.	16b/	.	.	.	.	.	.	.	.	.	.	.
8EE/J	.	16b/	.	8E\	-ba-	.	.	.	.	.	.	.	.
.	.	16b/JJ	16aa\Jk	.	.	16e\	-ba-	16g#\	-ba-	16b\	-ba-	16ee\Jk	16gg#\Jk
8AA/L	.	16cc#\LL	16aa\LL	8AA/	-ro	8c#\	-ro	8a\	-ro	8a\	-ro	4ee\	4aa\
.	.	16cc#\	16aa\	.	.	.	.	.	.	.	.	.	.
8BB/	.	16cc#\	16aa\	16AA/	fac-	16c#\	fac-	16a\	fac-	16cc#\	fac-	.	.
.	.	16cc#\JJ	16aa\JJ	16BB/	-ta	16c#\	-ta	16a\	-ta	16dd\	-ta	.	.
8C#/	6 5	16cc#\LL	16aa\LL	8C#/	e(st)	8A\	est	8a\	e(st)	8ee\	e(st)	4r	4r
.	.	16cc#\	16aa\	.	.	.	.	.	.	.	.	.	.
8D/J	.	16b\	16aa\	8D/	Ju-	8d\	Ju-	8a\	Ju-	8ff#\	Ju-	.	.
.	.	16b\JJ	16aa\JJ	.	.	.	.	.	.	.	.	.	.
!LO:LB:g=original	!	!	!	!	!	!	!	!	!	!	!	!LO:LB:g=original	!
=5	=5	=5	=5	=5	=5	=5	=5	=5	=5	=5	=5	=5	=5
!	!	!	!	!	!	!	!	!	!	!	!	!	!LO:TX:a:t=1
8E\L	#	16b/LL	16gg#X\LL	8E\L	-de-	4B\	-de-	4g#X\	-de-	4b\	-dae-	1r	1r
.	.	16b/	16gg#\	.	.	.	.	.	.	.	.	.	.
8F#\	.	16b/	16aa\	8F#\J	.	.	.	.	.	.	.	.	.
.	.	16b/JJ	16aa\JJ	.	.	.	.	.	.	.	.	.	.
8G#X\	6	16ee\LL	16bb\LL	8G#X\	-a	8B\	-a	8g#\	-a	8ee\	-a	.	.
.	.	16ee\	16bb\	.	.	.	.	.	.	.	.	.	.
8E\J	7	16dd\	16gg#X\	8E\	San-	8B\	San-	8g#\	San-	8dd\	San-	.	.
.	.	16dd\JJ	16gg#\JJ	.	.	.	.	.	.	.	.	.	.
!LO:TX:a:t=P:problem:mixed beam	!	!	!	!	!	!	!	!	!	!	!	!	!
8A\L	.	8cc#\L	16aa\LL	8A\	-cti-	8c#\	-cti-	8a\	-cti-	8cc#\	-cti-	.	.
.	.	.	16ee\	.	.	.	.	.	.	.	.	.	.
8AA/	.	8cc#\	16cc#\	8AA/	-fi-	8c#\	-fi-	8a\	-fi-	8cc#\	-fi-	.	.
.	.	.	16ee\JJ	.	.	.	.	.	.	.	.	.	.
!	!	!	!LO:TX:a:t=P:problem:mixed beam	!	!	!	!	!	!	!LO:LB:g=original	!	!	!
8AA/	6	8cc#\	16a/LL	8AA/	-ca-	8c#\	-ca-	8a\	-ca-	8ee\	-ca-	.	.
.	6	.	16aa\	.	.	.	.	.	.	.	.	.	.
8D/J	.	8ee\J	16ggn\	16C#/	-ti-	16c#\	-ti-	16a\	-ti-	16ee\	-ti-	.	.
.	.	.	16aa\JJ	16C#/	-o	16c#\	-o	16a\	-o	16ee\	-o	.	.
!	!	!LO:LB:g=original	!	!LO:LB:g=original	!	!	!	!	!	!	!	!	!LO:LB:g=original
=6	=6	=6	=6	=6	=6	=6	=6	=6	=6	=6	=6	=6	=6
8D\L	9	8ee\L	8ff#\L	8D\L	e-	4A\	e-	8f#\L	e-	(8ee\L	e-	8ff#\L	8aa\L
8E\	8	8a\	8gg\	8E\J	.	.	.	8g\J	.	8a\J)	.	8ee\	8gg\
!	!	!	!	!	!	!	!	!LO:LB:g=original	!	!	!	!	!
8F#\	.	8dd\	8aa\	8F#\L	-jus	4d\	-jus	8a\L	-jus	4dd\	-jus	8dd\	8ff#\
8G#X\J	.	8dd\J	8bb\J	8G#X\J	.	.	.	8b\J	.	.	.	8a\J	8ee\J
!	!	!	!LO:LB:g=original	!	!	!LO:LB:g=original	!	!	!	!	!	!	!
8A\L	.	8cc#\L	8ee\L	8A\	I-	8A\	I-	8.e\	I-	8cc#\	I-	8a/L	8ee\L
8Gn\	.	8cc#\	16ff#\L	8Gn\	-sra-	8B\	-sra-	.	.	8cc#\	-sra-	8a/J	8ee\J
.	.	.	16gg\J	.	.	.	.	16e\	-sra-	.	.	.	.
8F#\	.	8dd\	8aa\	8A\	-el	8A\	-el	8e\	-el	8dd\	-el	8r	8r
!	!	!LO:TX:a:t=fis	!	!	!	!	!	!	!	!	!	!	!
8D\J	.	[8ff#\J	8bb\J	8F#\	po-	8d\	Po-	8a\	po-	8ff#\	po-	8ff#\	8aa\
=7	=7	=7	=7	=7	=7	=7	=7	=7	=7	=7	=7	=7	=7
8G\L	7	8ff#\L]	8bb\L	(8G\L	-tes-	4B\	-tes-	8b\L	-tes-	16ff#\LL	-tes-	8gg\L	8bb\L
.	.	.	.	.	.	.	.	.	.	16ee\J	.	.	.
8F#\	.	16ee\L	8aa\J	8F#\J)	.	.	.	8a\J	.	8dd\J	.	8ff#\	8aa\
.	.	16dd\JJ	.	.	.	.	.	.	.	.	.	.	.
8G\	6	8ee\L	16bb\LL	(8G\L	-tas	4e\	-tas-	8b\L	-tas	4ee\	-tas	8gg\	8bb\
.	.	.	16gg\	.	.	.	.	.	.	.	.	.	.
8E\J	.	8ee\J	16aa\	8E\J)	e-	.	.	8g\J	.	.	.	8ee\J	8gg\J
.	.	.	16bb\JJ	.	.	.	.	.	.	.	.	.	.
8F#\L	7	8ee\L	8aa\L	(8F#\L	.	4A\	-e-	8a\L	e-	8ee\L	e-	8ff#\L	8aa\L
8E\	.	16dd\L	8gg\	8E\J)	.	.	.	8g\J	.	8a\J	.	8ee\	8gg\
.	.	16cc#\JJ	.	.	.	.	.	.	.	.	.	.	.
8F#\	6	8dd\L	8aa\	8F#\	-jus	8d\	-jus-	8a\	-jus	8dd\	-jus	8ff#\	8aa\
8D\J	.	8dd\J	8ff#\J	8D/	po-	8d\	-Po-	8f#\	po-	8dd\	po-	8dd\J	8ff#\J
=8	=8	=8	=8	=8	=8	=8	=8	=8	=8	=8	=8	=8	=8
!LO:TX:a:t=P:problem:mixed beam	!	!	!	!	!	!	!	!	!	!	!	!	!
8E\L	7	8dd\L	8gg\L	8E\L	-tes-	4B\	-tes-	8g\L	-tes-	4dd\	-tes-	8ee\L	8gg\L
8G\	.	8dd\	8gg\J	8G\J	.	.	.	8b\J	.	.	.	16ee\L	16gg\L
.	.	.	.	.	.	.	.	.	.	.	.	16ee\JJ	16gg\JJ
!	!	!	!	!LO:TX:a:t=P:problem:mixed beam	!	!	!	!	!	!	!	!	!
8A\	7	8cc#\	8.gg\L	8A\L	-tas	4c#\	-tas	8a\	-tas	4cc#\	-tas	8ee\L	8gg\L
8AA/J	.	8cc#\J	.	8AA/J	.	.	.	8g\	.	.	.	8ee\	8gg\
.	.	.	16gg\Jk	.	.	.	.	.	.	.	.	.	.
8D\L	.	8dd\L	8ff#\L	8D\L	e-	4A\	-e-	(4f#\	e-	4.dd\	e-	8dd\	8ff#\
8d\	.	8dd\	8ff#\	8d\	.	.	.	.	.	.	.	8a\J	8ee\J
8G\	6 5	8dd\	8.ff#t\	8G\	.	8B\L	.	4e\)	.	.	.	8dd\L	8ff#\L
8A\J	.	8cc#\J	.	8A\J	.	8A\J	.	.	.	8cc#\	.	16a\L	16ee\L
.	.	.	16ff#\Jk	.	.	.	.	.	.	.	.	16f#\JJ	16dd\JJ
!	!	!	!	!	!	!	!	!	!	!LO:LB:g=original	!	!	!
=9	=9	=9	=9	=9	=9	=9	=9	=9	=9	=9	=9	=9	=9
8D\L	.	16dd\LL	16dd\LL	4D/	-jus	4A\	-jus	4f#\	-jus	4dd\	-jus	4f#/	4dd\
.	.	16dd\	16ff#\	.	.	.	.	.	.	.	.	.	.
8E\	.	16dd\	16ff#\	.	.	.	.	.	.	.	.	.	.
.	.	16dd\JJ	16ff#\JJ	.	.	.	.	.	.	.	.	.	.
8F#\	.	16dd\LL	16ff#\LL	8d\	ma-	4r	.	4r	.	4r	.	4r	4r
.	.	16dd\	16ff#\	.	.	.	.	.	.	.	.	.	.
8D\J	.	16dd\	16ff#\	8D/	-re	.	.	.	.	.	.	.	.
.	.	16dd\JJ	16ff#\JJ	.	.	.	.	.	.	.	.	.	.
!	!	!	!	!LO:LB:g=original	!	!	!	!	!	!	!	!	!
8A\L	.	16dd\LL	16ee\LL	4A\	vi-	2r	.	2r	.	2r	.	2r	2r
.	.	16dd\	16ee\	.	.	.	.	.	.	.	.	.	.
8G\	.	16dd\	16ee\	.	.	.	.	.	.	.	.	.	.
.	.	16dd\JJ	16ee\JJ	.	.	.	.	.	.	.	.	.	.
!	!	!LO:LB:g=original	!	!	!	!	!	!	!	!	!	!	!
8A\	.	16cc#\LL	16ee\LL	8c#\	-dit	.	.	.	.	.	.	.	.
.	.	16cc#\	16ee\	.	.	.	.	.	.	.	.	.	.
8F#\J	.	16dd\	16aa\	8A\	et	.	.	.	.	.	.	.	.
.	.	16dd\JJ	16aa\JJ	.	.	.	.	.	.	.	.	.	.
!LO:LB:g=original	!	!	!LO:LB:g=original	!	!	!	!	!	!	!	!	!	!
=10	=10	=10	=10	=10	=10	=10	=10	=10	=10	=10	=10	=10	=10
!	!	!	!	!	!	!	!	!	!	!LO:TX:a:t=2	!	!	!
8G\L	9	8b\L	8aa\L	8B\L	fu-	00r	.	0r	.	0r	.	00r	00r
8A\	.	8cc#\	8ee\	8c#\	.	.	.	.	.	.	.	.	.
8B\	.	8dd\	8gg\	8d\	.	.	.	.	.	.	.	.	.
8c#\J	9	8ee\J	8gg\J	8e\J	.	.	.	.	.	.	.	.	.
!LO:TX:a:t=P:problem:mixed beam	!	!	!	!	!	!	!	!	!	!	!	!	!
8d\L	9	8a\L	8gg\L	8e\	.	.	.	.	.	.	.	.	.
8D/J	8	16b\L	16ff#\L	8d\	-git	.	.	.	.	.	.	.	.
.	.	16cc#\JJ	16ee\JJ	.	.	.	.	.	.	.	.	.	.
8r	.	8dd\L	8ff#\L	8r	.	.	.	.	.	.	.	.	.
8d\	.	8dd\J	8ff#\J	8d\	Jor-	.	.	.	.	.	.	.	.
=11	=11	=11	=11	=11	=11	=11	=11	=11	=11	=11	=11	=11	=11
8B\L	-	8dd\L	8ff#\L	4d\	-da-	.	.	.	.	.	.	.	.
8A\	.	8dd\	8ff#\	.	.	.	.	.	.	.	.	.	.
8G#X\	6	8dd\	8ee\	8B\	-nus	.	.	.	.	.	.	.	.
8E\J	.	8dd\J	8ee\J	8B\	con-	.	.	.	.	.	.	.	.
8A\L	.	4cc#\	4ee\	8d\	-ver-	.	.	.	.	.	.	.	.
8G#X\	.	.	.	8B\	-sus	.	.	.	.	.	.	.	.
8A\	.	4r	4r	8A\	e(st)	.	.	.	.	.	.	.	.
8AA\J	.	.	.	8A\	re-	.	.	.	.	.	.	.	.
!	!	!	!	!	!	!	!	!LO:LB:g=original	!	!	!	!	!
=12	=12	=12	=12	=12	=12	=12	=12	=12	=12	=12	=12	=12	=12
8D/L	56	4r	4r	8A\L	-tror-	.	.	4r	.	4r	.	.	.
8BB/	.	.	.	8B\	.	.	.	.	.	.	.	.	.
8E/	#	8r	8r	8.G#X\	.	.	.	8r	.	8r	.	.	.
8EE/J	.	8e/	8e/	.	.	.	.	8g#X\	Mon-	8b\	Mon-	.	.
.	.	.	.	16A\Jk	.	.	.	.	.	.	.	.	.
8AA/L	.	8A/L	8A/L	4A\	-sum	.	.	8a\	-tes	8cc#\	-tes	.	.
8BB/	.	8B/	8B/	.	.	.	.	8a\	e-	8dd\	e-	.	.
8C#/	56	8c#/	8c#/	4r	.	.	.	8a\	-xul-	8cc#\	-xul-	.	.
8D/J	.	8d/J	8d/J	.	.	.	.	8a\	-ta-	8cc#\	-ta-	.	.
!	!	!	!	!LO:LB:g=original	!	!	!	!	!	!	!	!	!
=13	=13	=13	=13	=13	=13	=13	=13	=13	=13	=13	=13	=13	=13
8E\L	#	8e/L	8e/L	00r	.	.	.	8g#X\	-ve-	8b\	-ve-	.	.
8F#\	.	8f#/	8f#/	.	.	.	.	8g#\	-runt	8b\	-runt	.	.
8G#X\	6	8g#X/	8g#X/	.	.	.	.	8g#\	si-	8ee\	si-	.	.
8E\J	7	8e/J	8e/J	.	.	.	.	8g#\	-cut	8dd\	-cut	.	.
!LO:TX:a:t=P:problem:mixed beam	!	!LO:LB:g=original	!	!	!	!	!	!	!	!	!	!	!
8A\L	.	8a/L	8a/L	.	.	.	.	8a\	a-	8cc#\	a-	.	.
8AA/	.	8A/	8A/	.	.	.	.	16a\	-rie-	16cc#\	-rie-	.	.
.	.	.	.	.	.	.	.	16a\	-tes	16cc#\	-tes	.	.
8C#/	65	8c#/	8c#/	.	.	.	.	8r	.	8r	.	.	.
8AA/J	.	8A/J	8A/J	.	.	.	.	8a\	et	8ee\	et	.	.
!	!	!	!	!	!	!	!	!	!	!LO:LB:g=original	!	!	!
=14	=14	=14	=14	=14	=14	=14	=14	=14	=14	=14	=14	=14	=14
8D\L	9	8d/L	8d/L	.	.	0r	.	8f#\	col-	8dd\	col-	0r	0r
8E\	.	8e/	8e/	.	.	.	.	8g#X\	-les	16dd\LL	-les	.	.
.	.	.	.	.	.	.	.	.	.	16cc#\JJ	.	.	.
8F#\	.	8f#/	8f#/	.	.	.	.	8a\	si-	8dd\	si-	.	.
8G#X\J	.	8g#X/J	8g#X/J	.	.	.	.	8b\	-cut	8dd\	-cut	.	.
!LO:LB:g=original	!	!	!LO:LB:g=original	!	!	!	!	!	!	!	!	!	!
8A\L	.	4a/	4a/	.	.	.	.	(4b\	A-	8cc#\L	A-	.	.
8Gn\	.	.	.	.	.	.	.	.	.	16dd\L	.	.	.
.	.	.	.	.	.	.	.	.	.	16ee\JJ	.	.	.
8A\	.	4r	4r	.	.	.	.	8a\)	.	4ff#\	-gni	.	.
8F#\J	6	.	.	.	.	.	.	8a\	-gmi	.	.	.	.
!	!	!	!	!	!	!	!	!LO:LB:g=original	!	!	!	!	!
=15	=15	=15	=15	=15	=15	=15	=15	=15	=15	=15	=15	=15	=15
8G\L	7	0r	0r	.	.	.	.	8b\	o-	8ff#\	o-	.	.
8F#\	.	.	.	.	.	.	.	8a\	-vi-	16ee\LL	-vi-	.	.
.	.	.	.	.	.	.	.	.	.	16dd\JJ	.	.	.
8G\	6	.	.	.	.	.	.	8b\	-um	8ee\	-um	.	.
8E\J	.	.	.	.	.	.	.	8gn\L	quid	4ee\	quid	.	.
8F#\L	7	.	.	.	.	.	.	8a\J	.	.	.	.	.
8E\	.	.	.	.	.	.	.	8g\	est	16dd\LL	est	.	.
.	.	.	.	.	.	.	.	.	.	16cc#\JJ	.	.	.
8F#\	6	.	.	.	.	.	.	8a\	ti-	8dd\	ti-	.	.
8D\J	.	.	.	.	.	.	.	8f#\	-bi	8dd\	-bi	.	.
=16	=16	=16	=16	=16	=16	=16	=16	=16	=16	=16	=16	=16	=16
!LO:TX:a:t=P:problem:mixed beam	!	!	!	!	!	!	!	!	!	!	!	!	!
8E/L	7	.	.	.	.	1r	.	8g\	ma-	8dd\	ma-	8ee\L	8gg\L
8G/	.	.	.	.	.	.	.	8g\	-re	8dd\	-re	8ee\	8gg\
8A/	7	.	.	.	.	.	.	8g\	qu-	8cc#\	qu-	8ee\	8gg\
8AA\J	.	.	.	.	.	.	.	8g\	-od	8cc#\	-od	8ee\J	8gg\J
8D\L	.	.	.	.	.	.	.	4f#\	fu-	4dd\	fu-	8dd\L	8ff#\L
8d\	.	.	.	.	.	.	.	.	.	.	.	8dd\J	8ff#\J
!	!	!	!	!	!	!	!	!	!	!LO:LB:g=original	!	!LO:LB:g=original	!
8G\	65	.	.	.	.	.	.	8g\L	-gi-	(8ee\L	-gi-	8dd\L	8ff#\L
8A\J	.	.	.	.	.	.	.	8e\J	.	8cc#\J)	.	16a\L	16ee\L
.	.	.	.	.	.	.	.	.	.	.	.	16f#\JJ	16dd\JJ
!	!	!	!	!	!	!	!	!	!	!	!	!	!LO:LB:g=original
=17	=17	=17	=17	=17	=17	=17	=17	=17	=17	=17	=17	=17	=17
8D\L	.	8dd\L	8.a\L	1r	.	4d\	et	4f#\	-sti	4dd\	-sti	4f#/	4dd\
8E\	.	8dd\	.	.	.	.	.	.	.	.	.	.	.
.	.	.	16ff#\K	.	.	.	.	.	.	.	.	.	.
8F#\	.	8ff#\	8ff#\	.	.	8d\	tu	4r	.	4r	.	4r	4r
8G\J	.	8ff#\J	8ff#\J	.	.	8d\	Jor-	.	.	.	.	.	.
!	!	!	!	!	!	!LO:LB:g=original	!	!	!	!	!	!	!
8A\L	4	8ee\L	8ee\L	.	.	8c#\	-da-	2r	.	2r	.	2r	2r
8A\	.	8a\	8a\	.	.	8c#\	-nis	.	.	.	.	.	.
8A\	.	8aa\	8aa\	.	.	8r	.	.	.	.	.	.	.
8F#\J	6	8aa\J	8aa\J	.	.	8d\	con-	.	.	.	.	.	.
=18	=18	=18	=18	=18	=18	=18	=18	=18	=18	=18	=18	=18	=18
!	!	!	!	!	!	!	!	!	!	!	!	!LO:TX:a:t=2	!
8G\L	9	4aa\	4aa\	2r	.	8B\	-ver-	0r	.	00r	.	0r	0r
8A\	.	.	.	.	.	8c#\	-sus	.	.	.	.	.	.
8B\	.	[4gg\	[4gg\	.	.	8d\	e(s)	.	.	.	.	.	.
8c#\J	.	.	.	.	.	8e\	re-	.	.	.	.	.	.
!	!	!	!LO:TX:a:t=P:problem:mixed beam	!	!	!	!	!	!	!	!	!	!
8d\L	94	8gg\L]	8gg\L]	4r	.	8e\	-tror-	.	.	.	.	.	.
8D\J	8 3	8b\J	8a/J	.	.	8d\	-sum	.	.	.	.	.	.
8r	.	4gg\	4gg\	8r	.	4r	.	.	.	.	.	.	.
8d\	.	.	.	(8d\	Mon-	.	.	.	.	.	.	.	.
!LO:LB:g=original	!	!	!	!	!	!	!	!	!	!	!	!	!
=19	=19	=19	=19	=19	=19	=19	=19	=19	=19	=19	=19	=19	=19
8B\L	3	8dd\L	8ff#\L	8B\)	-tes	1r	.	.	.	.	.	.	.
8A\	.	8dd\	8ff#\	8B\	e-	.	.	.	.	.	.	.	.
8G#X\	6	8dd\	8ee\	8B\	-xul-	.	.	.	.	.	.	.	.
8E\J	#	8dd\J	8ee\J	8G#X\	-ta-	.	.	.	.	.	.	.	.
8A\L	.	4cc#\	8ee\L	8c#\L	-tis	.	.	.	.	.	.	.	.
8G#X\	.	.	8a\J	8B\J	.	.	.	.	.	.	.	.	.
!	!	!LO:LB:g=original	!	!	!	!	!	!	!	!	!	!	!
8A\	.	8r	4aa\	8c#\	si-	.	.	.	.	.	.	.	.
8C#\J	6	8ee\	.	8A\	-cut	.	.	.	.	.	.	.	.
=20	=20	=20	=20	=20	=20	=20	=20	=20	=20	=20	=20	=20	=20
8D/L	5	8dd\L	8aa\L	8F#\	.	4r	.	4r	.	.	.	8ff#\L	8aa\L
8BB/	6	8cc#\	8bb\J	8D/	a-	.	.	.	.	.	.	8gg#X\	8bb\
8E/	.	8.b\	8.gg#X\L	8.E\	-rie-	8r	.	8r	.	.	.	8.ee\	8.gg#X\
8EE/J	.	.	.	.	.	8B\	et	8g#X\	et	.	.	.	.
.	.	16b\Jk	16aa\Jk	16E\	-tes	.	.	.	.	.	.	16ee\Jk	16aa\Jk
!	!	!	!	!	!	!	!	!LO:LB:g=original	!	!	!	!	!
8AA/L	.	4cc#\	4aa\	4AA/	a	8c#\	col-	8a\	col-	.	.	4ee\	4aa\
8BB/	.	.	.	.	.	8c#\	-les	8a\	-les	.	.	.	.
8C#/	.	4r	4r	4r	.	8c#\	si-	8a\	si-	.	.	4r	4r
8AA/J	.	.	.	.	.	8c#\	-cut	8a\	-cut	.	.	.	.
!	!	!	!LO:LB:g=original	!	!	!LO:LB:g=original	!	!	!	!	!	!	!
=21	=21	=21	=21	=21	=21	=21	=21	=21	=21	=21	=21	=21	=21
!	!	!	!LO:TX:a:t=1	!	!	!	!	!	!	!	!	!	!
8E\L	#	1r	1r	2r	.	4B\	A-	4a\	A-	.	.	00r	00r
8F#\	.	.	.	.	.	.	.	.	.	.	.	.	.
8G#X\	6	.	.	.	.	(8e\L	-gni	4g#X\	-gni	.	.	.	.
8E\J	7	.	.	.	.	8d\J)	.	.	.	.	.	.	.
!LO:TX:a:t=P:problem:mixed beam	!	!	!	!	!	!	!	!	!	!	!	!	!
8A\L	.	.	.	8r	.	8c#\	o-	8a\	o-	.	.	.	.
8AA/	.	.	.	8A\	a	16B\	-vi-	16a\	-vi-	.	.	.	.
.	.	.	.	.	.	16A\	-um	16a\	-um	.	.	.	.
!	!	!	!	!LO:LB:g=original	!	!	!	!	!	!	!	!	!
8C#/	65	.	.	8A\	fa-	4r	.	4r	.	.	.	.	.
8AA/J	-	.	.	16A\	-ci-	.	.	.	.	.	.	.	.
.	.	.	.	16A\	-e	.	.	.	.	.	.	.	.
=22	=22	=22	=22	=22	=22	=22	=22	=22	=22	=22	=22	=22	=22
!	!	!	!	!	!	!	!	!LO:TX:a:t=3	!	!	!	!	!
8D\L	98	2r	4ff#\	8d\	Do-	00r	.	0r	.	0r	.	.	.
8E\	.	.	.	16d\	-mi-	.	.	.	.	.	.	.	.
.	.	.	.	16d\	-ni	.	.	.	.	.	.	.	.
8F#\	.	.	8dd\L	8d\	mo-	.	.	.	.	.	.	.	.
8G#X\J	.	.	8ddd\J	16d\	-ta	.	.	.	.	.	.	.	.
.	.	.	.	16d\	e(st)	.	.	.	.	.	.	.	.
8A\L	.	8ee\L	4ccc#\	8c#\	ter-	.	.	.	.	.	.	.	.
8Gn\	.	8a\	.	8B\	-ra	.	.	.	.	.	.	.	.
8A\	.	8aa\	8r	8r	.	.	.	.	.	.	.	.	.
8F#\J	6	(8gg\J	8aa\	8A\	a	.	.	.	.	.	.	.	.
=23	=23	=23	=23	=23	=23	=23	=23	=23	=23	=23	=23	=23	=23
*	*	*	*2\right	*	*	*	*	*	*	*	*	*	*
8G\L	7	(4ff#\)	2bb\	8B\	fa-	.	.	.	.	.	.	.	.
8F#\	.	.	.	16A\	-ci-	.	.	.	.	.	.	.	.
.	.	.	.	16A\	-e	.	.	.	.	.	.	.	.
8G\	6	4ee\)	.	8B\	De-	.	.	.	.	.	.	.	.
8E\J	.	.	.	8G\	-i	.	.	.	.	.	.	.	.
8F#\L	7	(4ee\	2aa\	8A\	Ja-	.	.	.	.	.	.	.	.
8E\	.	.	.	8D/	-cob	.	.	.	.	.	.	.	.
8F#\	6	4dd\)	.	8r	.	.	.	.	.	.	.	.	.
8D\J	.	.	.	8D/	Qui	.	.	.	.	.	.	.	.
!LO:LB:g=original	!	!	!	!LO:LB:g=original	!	!	!	!	!	!	!	!	!
=24	=24	=24	=24	=24	=24	=24	=24	=24	=24	=24	=24	=24	=24
!LO:TX:a:t=P:problem:mixed beam	!	!	!	!	!	!	!	!	!	!	!	!	!
8E\L	7	4dd\	2gg\	8G\	con-	.	.	1r	.	1r	.	.	.
8G\	.	.	.	8G\	-ver-	.	.	.	.	.	.	.	.
8A\	7	4cc#\	.	8G\	-tit	.	.	.	.	.	.	.	.
8AA/J	.	.	.	8G\	pe-	.	.	.	.	.	.	.	.
8D\L	.	8dd\L	8ff#\L	8G\	-tram	.	.	.	.	.	.	.	.
8d\	.	8dd\	8ff#\	16d\	in	.	.	.	.	.	.	.	.
.	.	.	.	16d\	sta-	.	.	.	.	.	.	.	.
8G\	6 5	8dd\	8ee\	8G\	-gna	.	.	.	.	.	.	.	.
8A\J	.	8cc#\J	8aa\J	16A\	a-	.	.	.	.	.	.	.	.
.	.	.	.	16A\	-qua-	.	.	.	.	.	.	.	.
=25	=25	=25	=25	=25	=25	=25	=25	=25	=25	=25	=25	=25	=25
!	!	!LO:TX:a:t=P:problem:mixed beam	!LO:TX:a:t=P:problem:mixed beam	!	!	!	!	!	!	!	!	!	!
8D\L	.	8dd\L	8ff#\L	8D/	.	.	.	4f#\	non	4dd\	n(on)	0r	0r
8E\	.	16d/L	16d/L	8D/	-rum	.	.	.	.	.	.	.	.
.	.	16e/JJ	16e/J	.	.	.	.	.	.	.	.	.	.
!	!	!LO:LB:g=original	!	!	!	!	!	!	!	!	!	!	!
8F#\	.	8f#/L	8f#/	8r	.	.	.	8f#\	no-	8a\	no-	.	.
8D\J	.	8d/J	8d/J	8D/	et	.	.	8f#\	-bis	8dd\	-bis	.	.
8A\L	4	8a/L	8a/L	8A\L	ru-	.	.	8.e\	Do-	8.cc#\	Do-	.	.
8G\	.	8g/	8g/	8G\J	.	.	.	.	.	.	.	.	.
.	.	.	.	.	.	.	.	16e\	-mi-	16cc#\	-mi-	.	.
8A\	#	8a/	8a/	8A\	-perm	.	.	8e\	-ne	8cc#\	-ne	.	.
8F#\J	6	8f#/J	8f#/J	8F#\	in	.	.	8a\	non	8dd\	non	.	.
=26	=26	=26	=26	=26	=26	=26	=26	=26	=26	=26	=26	=26	=26
8G\L	9	8g/L	8g/L	(8G\L	fon-	2r	.	4a\	no-	8b\L	no-	.	.
8A\	.	8a/	8a/	8A\J)	.	.	.	.	.	8cc#\	.	.	.
8B\	.	8b/	8b/	8B\	-tes	.	.	4g\	.	8dd\	.	.	.
8c#\J	.	8cc#/J	8cc#/J	8c#\	a-	.	.	.	.	8ee\J	.	.	.
!LO:TX:a:t=P:problem:mixed beam	!	!LO:TX:a:t=P:problem:mixed beam	!LO:TX:a:t=P:problem:mixed beam	!LO:LB:g=original	!	!	!	!LO:LB:g=original	!	!	!	!	!
8d\L	43	8dd\L	8dd\L	8d\	-qua-	8r	.	4f#\	-bis	4a\	-bis	.	.
8D/J	.	8d/J	8d/J	8D/	-rum	8d\	Sed	.	.	.	.	.	.
8r	.	8r	8r	4r	.	8d\	No-	4r	.	4r	.	.	.
8d\	.	8ff#\	8ff#\	.	.	16d\	-mi-	.	.	.	.	.	.
.	.	.	.	.	.	16d\	-ni	.	.	.	.	.	.
!	!	!	!LO:LB:g=original	!	!	!	!	!	!	!	!	!	!
=27	=27	=27	=27	=27	=27	=27	=27	=27	=27	=27	=27	=27	=27
8B\L	3	4ff#\	4ff#\	1r	.	4d\	tu-	1r	.	1r	.	1r	1r
8A\	.	.	.	.	.	.	.	.	.	.	.	.	.
8G#X\	6	4ee\	4ee\	.	.	8d\	-o	.	.	.	.	.	.
8E\J	#	.	.	.	.	8e\	da	.	.	.	.	.	.
8A\L	.	8cc#\L	8ee\L	.	.	8.c#\	glo-	.	.	.	.	.	.
8G#\	.	8ee\	8ee\	.	.	.	.	.	.	.	.	.	.
.	.	.	.	.	.	16c#\	-ri-	.	.	.	.	.	.
!	!	!	!	!	!	!LO:LB:g=original	!	!	!	!	!	!	!
8A\	.	8cc#\	8ee\	.	.	8c#\	-am	.	.	.	.	.	.
8C#\J	.	8ee\J	8ee\J	.	.	8c#\	da	.	.	.	.	.	.
=28	=28	=28	=28	=28	=28	=28	=28	=28	=28	=28	=28	=28	=28
8D/L	.	8ff#\L	8aa\L	2r	.	8B\L	glo-	2r	.	2r	.	2r	2r
8BB/	.	8aa\	8aa\	.	.	16c#\L	.	.	.	.	.	.	.
.	.	.	.	.	.	16B\JJ	.	.	.	.	.	.	.
8E/	7	8aa\	8aa\	.	.	8c#\	-ri-	.	.	.	.	.	.
8EE/J	.	8gg#X\J	8gg#X\J	.	.	16B\LL	-am	.	.	.	.	.	.
.	.	.	.	.	.	16A\JJ	.	.	.	.	.	.	.
!	!	!	!LO:TX:a:t=P:problem:mixed beam	!	!	!LO:N:vis=8	!	!	!	!LO:LB:g=original	!	!	!
8AA/L	.	8aa\L	16aa\LL	8AA/L	su-	16A\	su-	8r	.	8r	.	8a/L	8aa\L
!	!	!	!	!	!	!LO:N:vis=8	!	!	!	!	!	!	!
.	.	.	16a/	.	.	16e\	-per	.	.	.	.	.	.
8BB/	.	16cc#\L	16a/	8BB/J	.	8e\	mi-	8a\	su-	8cc#\	su-	16a/L	16aa\L
.	.	16dd\JJ	16a/JJ	.	.	.	.	.	.	.	.	16a/JJ	16aa\JJ
!	!	!	!LO:TX:a:t=P:problem:mixed beam	!	!	!	!	!	!	!	!	!	!
8C#/	.	8ee\L	16a/LL	8C#/	-per	8e\	-se-	8a\	-per	8cc#\	-per	8a/L	8aa\L
.	.	.	16aa\	.	.	.	.	.	.	.	.	.	.
8AA/J	.	8cc#\J	16aa\	8AA/	mi-	8e\	-ri-	8a\	mi-	8cc#\	mi-	8a/J	8aa\J
.	.	.	16aa\JJ	.	.	.	.	.	.	.	.	.	.
!LO:LB:g=original	!	!LO:LB:g=original	!	!	!	!	!	!	!	!	!	!	!
=29	=29	=29	=29	=29	=29	=29	=29	=29	=29	=29	=29	=29	=29
8E\L	#	8b\L	16gg#X\LL	8E\	-se-	8f#\	-cor-	8g#X\	-se-	8b\	-se-	8ee\L	8gg#X\L
.	.	.	16gg#\	.	.	.	.	.	.	.	.	.	.
8F#\	6	8ee\	16aa\	8F#\	-ri-	8e\	-di-	8g#\	-ri	8b\	-ri-	8ff#\	8aa\
.	.	.	16aa\JJ	.	.	.	.	.	.	.	.	.	.
8G#X\	7	8ee\	16bb\LL	8G#X\	-cor-	8e\	-a	8g#\	cor-	8b\	-cor-	8gg#X\	8bb\
.	.	.	16bb\	.	.	.	.	.	.	.	.	.	.
8E\J	.	8b\J	16gg#X\	16E\	-di-	16d\	tu-	16g#\	-di-	16ee\	-di-	8ee\J	8gg#\J
.	.	.	16gg#\JJ	16E\	-a	16d\	-a	16g#\	-a	16ee\	-a	.	.
!LO:TX:a:t=P:problem:mixed beam	!	!	!	!	!	!	!	!	!	!	!	!	!
*	*	*	*	*	*	*	*ij	*	*	*	*	*	*
8A\L	.	8cc#\L	16aa\LL	8A\	tu-	8c#\	tu-	8a\	tu-	8cc#\	tu-	8ee\L	8aa\L
.	.	.	16aa\	.	.	.	.	.	.	.	.	.	.
8AA/	.	8cc#\	16aa\	8AA/	-a	8e\	-a	8a\	-a	8cc#\	-a	8ee\	8aa\
.	.	.	16aa\JJ	.	.	.	.	.	.	.	.	.	.
*	*	*	*	*	*	*	*Xij	*	*	*	*	*	*
!	!	!	!LO:TX:a:t=P:problem:mixed beam	!	!	!	!	!	!	!	!	!	!
8C#/	.	8ee\	16a/LL	8r	.	8r	.	8r	.	8r	.	8ff#\	8aa\
.	.	.	16aa\	.	.	.	.	.	.	.	.	.	.
8AA/J	.	[8ee\J	16aa\	8AA/	et	8c#\	et	8a\	et	8ee\	et	8ee\J	8gg\J
.	.	.	16ggn\JJ	.	.	.	.	.	.	.	.	.	.
!	!	!	!	!	!	!LO:LB:g=original	!	!	!	!	!	!	!
=30	=30	=30	=30	=30	=30	=30	=30	=30	=30	=30	=30	=30	=30
8D\L	93	8ee\L]	16ff#\LL	8D/	ve-	8.A\	ve-	8f#\	ve-	8ee\	ve-	8dd\L	8ff#\L
.	.	.	16ff#\	.	.	.	.	.	.	.	.	.	.
8E\	.	16dd\L	16gg\	8E/	-ri-	.	.	8g\	-ri-	16dd\LL	-ri-	8ee\	8gg\
.	.	16cc#\JJ	16gg\JJ	.	.	16c#\	-ri-	.	.	16cc#\JJ	.	.	.
!	!	!	!LO:LB:g=original	!LO:PB:g=original	!	!	!	!	!	!	!	!	!
8F#\	.	8dd\L	16aa\LL	8F#\	-ta-	8A\	-ta-	8a\	-ta-	8dd\	-ta-	8ff#\	8aa\
.	.	.	16aa\	.	.	.	.	.	.	.	.	.	.
8G#X\J	.	8dd\J	16bb\	8Gn\	-e	8d\	-te	8b\	-te	8dd\	-te	8gg\J	8bb\J
.	.	.	16bb\JJ	.	.	.	.	.	.	.	.	.	.
!	!	!	!	!	!	!	!	!LO:PB:g=original	!	!	!	!LO:LB:g=original	!
8A\L	.	8cc#\L	16ee\LL	(8A\L	tu-	8c#\	tu-	8e\	tu-	8cc#\	tu-	8a/L	8ee\L
.	.	.	16ee\	.	.	.	.	.	.	.	.	.	.
8Gn\	.	8cc#\	16ee\	8G\J)	.	8c#\	-a	8e\	-a	8a\	-a	8a/J	8ee\J
.	.	.	16ee\JJ	.	.	.	.	.	.	.	.	.	.
8A\	.	8cc#\	8ee\L	8A\	-a	8r	.	8r	.	8r	.	8r	8r
8F#\J	6	[8ff#\J	8aa\J	8F#\	ne	8d\	ne	8a\	ne	8ff#\	ne	8aa\	16r
.	.	.	.	.	.	.	.	.	.	.	.	.	16aa\
!	!	!	!	!	!	!	!	!	!	!LO:LB:g=original	!	!	!
=31	=31	=31	=31	=31	=31	=31	=31	=31	=31	=31	=31	=31	=31
*	*	*	*	*	*	*	*	*	*	*	*	*2\right	*2\right
8G\L	7	8ff#\L]	8bb\L	8G\	quan-	8B\	quan-	8b\	quan-	8ff#\	quan-	2gg\	2bb\
8F#\	.	8ff#\	8aa\J	8F#\	-do	8B\	-do	8a\	-do	(16ee\LL	-do	.	.
.	.	.	.	.	.	.	.	.	.	16dd\JJ)	.	.	.
8G\	6	8ee\	16bb\LL	8G\	di-	8e\	di-	8b\	di-	8ee\	di-	.	.
.	.	.	16ee\	.	.	.	.	.	.	.	.	.	.
8E\J	.	8ee\J	16ff#\	8E\	-cant	8e\	-cant	8g\	-cant	8ee\	-cant	.	.
.	.	.	16gg\JJ	.	.	.	.	.	.	.	.	.	.
8F#\L	7	8ee\L	8aa\L	8F#\L	gen-	4A\	gen-	8a\L	gen-	8ee\L	gen-	2ff#\	2aa\
8E\	.	8cc#\	8gg\J	8E\J	.	.	.	8g\J	.	16dd\L	.	.	.
.	.	.	.	.	.	.	.	.	.	16cc#\JJ	.	.	.
8F\yy	.	8dd\	16aa\LL	8F#\	-tes	8d\	-tes	8a\	-tes	8dd\	-tes	.	.
.	.	.	16dd\	.	.	.	.	.	.	.	.	.	.
8D\J	6	8dd\J	16ee\	8D/	u-	8d\	u-	8f#\	u-	8dd\	u-	.	.
.	.	.	16ff#\JJ	.	.	.	.	.	.	.	.	.	.
!	!	!	!	!	!	!	!	!	!	!	!	!	!LO:LB:g=original
=32	=32	=32	=32	=32	=32	=32	=32	=32	=32	=32	=32	=32	=32
!LO:TX:a:t=P:problem:mixed beam	!	!	!	!	!	!	!	!	!	!	!	!	!
8E\L	7	8dd\L	16gg\LL	8E\	-bi	8d\	-bi	8g\	-bi	8dd\	-bi	2ee\	2gg\
.	.	.	16gg\	.	.	.	.	.	.	.	.	.	.
*	*	*	*	*	*	*	*ij	*	*	*	*	*	*
8G\	.	8dd\	16gg\	8G\	est	8B\	u-	8g\	e(st)	8dd\	est	.	.
.	.	.	16gg\JJ	.	.	.	.	.	.	.	.	.	.
!	!	!	!LO:TX:a:t=P:problem:mixed beam	!	!	!	!	!	!	!	!	!	!
8A\	7	8dd\	16a\LL	8A\	De-	8A\	-bi	8g\	De-	8dd\	De-	.	.
.	.	.	16gg/	.	.	.	.	.	.	.	.	.	.
*	*	*	*	*	*	*	*Xij	*	*	*	*	*	*
8AA/J	.	8cc#\J	16gg/	16AA/	-us	16A\	e(st)	16g\	-us	16cc#\	-us	.	.
.	.	.	16gg/JJ	16AA/	e	16A\	De-	16g\	e	16cc#\	e	.	.
!	!	!	!	!	!	!LO:LB:g=original	!	!	!	!	!	!	!
8D\L	.	8dd\L	16ff#\LL	8D\L	o-	8A\	-us	4f#\	o-	4dd\	o-	8dd\L	8ff#\L
.	.	.	16ff#\	.	.	.	.	.	.	.	.	.	.
8d\	.	8dd\	16ff#\	8d\	.	8A\	e	.	.	.	.	8dd\J	8ff#\J
.	.	.	16ff#\JJ	.	.	.	.	.	.	.	.	.	.
8G\	.	8dd\	8.ee\L	8G\	.	8B\L	o-	8g\L	.	8ee\L	.	8dd\L	8ff#\L
8A\J	.	8cc#\J	.	8A\J	.	8A\J	.	8e\J	.	8cc#\J	.	16a\L	16ee\L
.	.	.	16ee\Jk	.	.	.	.	.	.	.	.	16f#\JJ	16dd\JJ
!	!	!LO:LB:g=original	!LO:LB:g=original	!LO:LB:g=original	!	!	!	!	!	!	!	!	!
=33	=33	=33	=33	=33	=33	=33	=33	=33	=33	=33	=33	=33	=33
8D\L	.	16dd\LL	16dd\LL	4D/	-rum	4A\	-rum	4f#\	-rum	4dd\	-rum.	4f#/	4dd\
.	.	16ff#\	16aa\	.	.	.	.	.	.	.	.	.	.
8E\	.	16ff#\	16aa\	.	.	.	.	.	.	.	.	.	.
.	.	16ff#\JJ	16aa\JJ	.	.	.	.	.	.	.	.	.	.
8F#\	.	16ff#\LL	16aa\LL	4r	.	4r	.	4r	.	4r	.	4r	4r
.	.	16dd\	16ff#\	.	.	.	.	.	.	.	.	.	.
8D\J	.	16ee\	16gg\	.	.	.	.	.	.	.	.	.	.
.	.	16dd\JJ	16aa\JJ	.	.	.	.	.	.	.	.	.	.
!	!	!	!LO:TX:a:t=P:problem:mixed beam	!	!	!	!	!LO:LB:g=original	!	!	!	!	!
8A\L	4	8dd\L	16ee\LL	2r	.	2r	.	2r	.	2r	.	2r	2r
.	.	.	16a/	.	.	.	.	.	.	.	.	.	.
8A\	.	8dd\	16a/	.	.	.	.	.	.	.	.	.	.
.	.	.	16a/JJ	.	.	.	.	.	.	.	.	.	.
!	!	!	!LO:TX:a:t=P:problem:mixed beam	!	!	!	!	!	!	!	!	!	!
8A\	7	8cc#\	16a/LL	.	.	.	.	.	.	.	.	.	.
.	.	.	16aa\	.	.	.	.	.	.	.	.	.	.
8F#\J	6	8dd\J	16aa\	.	.	.	.	.	.	.	.	.	.
.	.	.	16aa\JJ	.	.	.	.	.	.	.	.	.	.
!LO:LB:g=original	!	!	!	!	!	!	!	!	!	!	!	!	!
=34	=34	=34	=34	=34	=34	=34	=34	=34	=34	=34	=34	=34	=34
8G\L	9	8b\L	16aa\LL	2r	.	1r	.	0r	.	0r	.	00r	00r
.	.	.	16dd\	.	.	.	.	.	.	.	.	.	.
8A\	.	8cc#\	16ee\	.	.	.	.	.	.	.	.	.	.
.	.	.	16ff#\JJ	.	.	.	.	.	.	.	.	.	.
8B\	.	8dd\	16gg\LL	.	.	.	.	.	.	.	.	.	.
.	.	.	16gg\	.	.	.	.	.	.	.	.	.	.
8c#\J	.	8ee\J	16gg\	.	.	.	.	.	.	.	.	.	.
.	.	.	16gg\JJ	.	.	.	.	.	.	.	.	.	.
!LO:TX:a:t=P:problem:mixed beam	!	!	!	!	!	!	!	!	!	!	!	!	!
8d\L	.	8a/L	8gg\L	4r	.	.	.	.	.	.	.	.	.
8D/J	43	8a/J	8ff#\J	.	.	.	.	.	.	.	.	.	.
8r	.	4r	4r	8r	.	.	.	.	.	.	.	.	.
8d\	.	.	.	16d\	De-	.	.	.	.	.	.	.	.
.	.	.	.	16d\	-us	.	.	.	.	.	.	.	.
=35	=35	=35	=35	=35	=35	=35	=35	=35	=35	=35	=35	=35	=35
8B\L	.	1r	1r	4d\	au-	8.f#\	om-	.	.	.	.	.	.
8A\	.	.	.	.	.	.	.	.	.	.	.	.	.
.	.	.	.	.	.	16f#\	-ni-	.	.	.	.	.	.
8G#X\	6	.	.	4d\	-tem	8e\	-a	.	.	.	.	.	.
8E\J	#	.	.	.	.	8e\	quae-	.	.	.	.	.	.
8A\L	.	.	.	8c#\L	nos-	4e\	-cum-	.	.	.	.	.	.
8G#\	.	.	.	8B\J	.	.	.	.	.	.	.	.	.
8A\	.	.	.	8c#\	-ter	4c#\	-q(ue)	.	.	.	.	.	.
8C#\J	.	.	.	8A\	in	.	.	.	.	.	.	.	.
=36	=36	=36	=36	=36	=36	=36	=36	=36	=36	=36	=36	=36	=36
8D\L	56	2r	2r	8A\L	Cae-	8B\	vo-	2r	.	2r	.	.	.
8BB\	.	.	.	8B\	.	16B\	-lu-	.	.	.	.	.	.
.	.	.	.	.	.	16B\	-it	.	.	.	.	.	.
8E\	.	.	.	8G#X\	.	8.B\L	fe-	.	.	.	.	.	.
8EE\J	.	.	.	8A\J	.	.	.	.	.	.	.	.	.
.	.	.	.	.	.	16c#\Jk	.	.	.	.	.	.	.
8AA/L	.	16r	16r	4A\	-lo	4c#\	-cit	8a\	Si-	8cc#\	Si-	.	.
.	.	16a\LL	16a\LL	.	.	.	.	.	.	.	.	.	.
8BB/	.	16cc#\	16cc#\	.	.	.	.	8a\	-mu-	8dd\	-mu-	.	.
.	.	16ee\JJ	16ee\JJ	.	.	.	.	.	.	.	.	.	.
!	!	!	!	!	!	!LO:LB:g=original	!	!	!	!LO:LB:g=original	!	!	!
8C#/	.	4aa\	4aa\	4r	.	4r	.	8a\	-la-	8ee\	-la-	.	.
8AA/J	.	.	.	.	.	.	.	8a\	-cra	8cc#\	-cra	.	.
!	!	!	!LO:LB:g=original	!	!	!	!	!	!	!	!	!	!
=37	=37	=37	=37	=37	=37	=37	=37	=37	=37	=37	=37	=37	=37
8E\L	#	8b/	8ee\	00r	.	00r	.	8.g#X\	gen-	8.b\	gen-	.	.
8F#\	.	8r	8r	.	.	.	.	.	.	.	.	.	.
.	.	.	.	.	.	.	.	16g#\	-ti-	16b\	-ti-	.	.
!	!	!LO:LB:g=original	!	!	!	!	!	!	!	!	!	!	!
8G#X\	6	8b/	8ee\	.	.	.	.	8g#\	-um	8b\	-um	.	.
8E\J	7	8r	8r	.	.	.	.	8g#\	ar-	8b\	ar-	.	.
!LO:TX:a:t=P:problem:mixed beam	!	!	!	!	!	!	!	!	!	!	!	!	!
8A\L	.	8a/	8cc#\	.	.	.	.	4a\	-gen-	4cc#\	-gen-	.	.
8AA/	.	8r	8r	.	.	.	.	.	.	.	.	.	.
8C#/	.	8cc#\	8ee\	.	.	.	.	8a\	-tum	8ee\	-tum	.	.
8AA/J	.	8r	8r	.	.	.	.	8a\	et	8ee\	et	.	.
=38	=38	=38	=38	=38	=38	=38	=38	=38	=38	=38	=38	=38	=38
8D\L	9	8a/	8ff#\	.	.	.	.	8a\L	au-	8ff#\L	au-	0r	0r
8E\	.	8r	8r	.	.	.	.	8gn\J	.	8ee\J	.	.	.
8F#\	.	8dd\	8dd\	.	.	.	.	8f#\	-rum	8dd\	-rum	.	.
8G#X\J	.	8r	8r	.	.	.	.	4e\	o-	8dd\L	o-	.	.
8A\L	.	8e/	8cc#\	.	.	.	.	.	.	8cc#\J	.	.	.
8Gn\	.	8r	8r	.	.	.	.	16e\	-pe-	16b\	-pe-	.	.
.	.	.	.	.	.	.	.	16e\	-ra	16b\	-ra	.	.
8A\	.	8a/	8dd\	.	.	.	.	8e\	ma-	8cc#\	ma-	.	.
!	!	!	!	!	!	!	!	!LO:LB:g=original	!	!	!	!	!
8F#\J	6	8r	8r	.	.	.	.	16f#\	-nu-	16a\	-nu-	.	.
.	.	.	.	.	.	.	.	16f#\	-um	16a\	-um	.	.
!LO:LB:g=original	!	!	!	!	!	!	!	!	!	!	!	!	!
=39	=39	=39	=39	=39	=39	=39	=39	=39	=39	=39	=39	=39	=39
8G\L	7	8g/	8b\	.	.	.	.	8.f#\	ho-	8b\	ho-	.	.
8F#\	.	8r	8r	.	.	.	.	.	.	16cc#\LL	-mi-	.	.
.	.	.	.	.	.	.	.	16e\	-mi-	16dd\JJ	.	.	.
!	!	!	!	!	!	!	!	!	!	!LO:LB:g=original	!	!	!
8G\	6	8g/	8ee\	.	.	.	.	8e\	-num	8ee\	-num	.	.
8E\J	.	8r	8r	.	.	.	.	8g\	os	8ee\	os	.	.
8F#\L	7	8f#/	8a/	.	.	.	.	8a\L	La-	8ee\L	La-	.	.
8E\	.	8r	8r	.	.	.	.	8g\J	.	16dd\L	.	.	.
.	6	.	.	.	.	.	.	.	.	16cc#\JJ	.	.	.
8F#\	.	8f#/	8dd\	.	.	.	.	8a\	-bent	8dd\	-bent	.	.
8D\J	.	8r	8r	.	.	.	.	8f#\	et	8dd\	et	.	.
=40	=40	=40	=40	=40	=40	=40	=40	=40	=40	=40	=40	=40	=40
!LO:TX:a:t=P:problem:mixed beam	!	!	!	!	!	!	!	!	!	!	!	!	!
8E/L	7	8g/	8dd\	.	.	.	.	8g\	n(on)	8dd\	non	2r	2r
8G/	.	8r	8r	.	.	.	.	8g\	lo-	8dd\	lo-	.	.
8A/	7	8g/	8cc#\	.	.	.	.	4g\	-guen-	(8dd\L	-guen-	.	.
8AA\J	.	8r	8r	.	.	.	.	.	.	8cc#\J)	.	.	.
!LO:TX:a:t=P:problem:mixed beam	!	!LO:PB:g=original	!LO:PB:g=original	!	!	!	!	!	!	!	!	!	!
8D/L	.	8f#/L	8dd\L	.	.	.	.	4f#\	-tur	4dd\	-tur	8dd\L	8ff#\L
8d\	.	8f#/	8dd\J	.	.	.	.	.	.	.	.	8dd\J	8ff#\J
8G\	.	8e/	8dd\L	.	.	.	.	4r	.	4r	.	8dd\L	8ff#\L
8A\J	.	8e/J	8cc#\J	.	.	.	.	.	.	.	.	16a\L	16ee\L
.	.	.	.	.	.	.	.	.	.	.	.	16f#\JJ	16dd\JJ
=41	=41	=41	=41	=41	=41	=41	=41	=41	=41	=41	=41	=41	=41
8D\L	.	8f#/	8dd\	00r	.	8.d\	o-	8.a\	o-	0r	.	4f#/	4dd\
8E\	.	8r	8r	.	.	.	.	.	.	.	.	.	.
.	.	.	.	.	.	16d\	-cu-	16g\	-cu-	.	.	.	.
8F#\	.	8f#/	8dd\	.	.	4d\	-los	8f#\L	-los	.	.	4r	4r
8D\J	.	8r	8r	.	.	.	.	8a\J	.	.	.	.	.
8A\L	4	8e/	8cc#\	.	.	[8c#\	ha-	4e\	ha-	.	.	2r	2r
8G\	.	8r	8r	.	.	8c#\]	-bent	.	.	.	.	.	.
8A\	#	8a/	8dd\	.	.	8c#\	et	8e\	-bent	.	.	.	.
8F#\J	.	8r	8r	.	.	8d\	n(on)	8a\	et	.	.	.	.
!	!	!	!	!	!	!	!	!LO:LB:g=original	!	!	!	!	!
=42	=42	=42	=42	=42	=42	=42	=42	=42	=42	=42	=42	=42	=42
8G\L	9	8a/	8b\	.	.	8B\L	vi-	8b\	non	.	.	00r	00r
8A\	.	8r	8r	.	.	8c#\J	.	8a\	vi-	.	.	.	.
8B\	.	8g/	8g/	.	.	8d\L	-de-	4g\	-de-	.	.	.	.
8c#\J	43	8r	8r	.	.	8e\J	.	.	.	.	.	.	.
!LO:TX:a:t=P:problem:mixed beam	!	!	!	!	!	!	!	!	!	!	!	!	!
8d\L	.	8A/	8f#/	.	.	8e\	.	4f#\	-bunt	.	.	.	.
8D/J	.	8r	8r	.	.	8d\	-bunt	.	.	.	.	.	.
8r	.	8f#/	8a/	.	.	8r	.	8r	.	.	.	.	.
8d\	.	8r	8r	.	.	[8d\	au-	8f#\	au-	.	.	.	.
=43	=43	=43	=43	=43	=43	=43	=43	=43	=43	=43	=43	=43	=43
8B\L	3	8d/	8b/	.	.	4d\]	.	4f#\	-res	1r	.	.	.
8A\	.	8r	8r	.	.	.	.	.	.	.	.	.	.
8G#X\	6	8e/	8b/	.	.	4d\	-res	4e\	ha-	.	.	.	.
8E\J	.	8r	8r	.	.	.	.	.	.	.	.	.	.
!	!	!	!	!	!	!LO:LB:g=original	!	!	!	!	!	!	!
8A\L	.	8e/	8cc#\	.	.	4c#\	ha-	8e\L	.	.	.	.	.
8G#X\	.	8r	8r	.	.	.	.	16f#\L	.	.	.	.	.
.	.	.	.	.	.	.	.	16g#X\JJ	.	.	.	.	.
8A\	.	8a/	8ee\	.	.	8c#\	-bent	8a\	bent	.	.	.	.
8C#\J	.	8r	8r	.	.	8c#\	et	[8a\	et	.	.	.	.
!LO:LB:g=original	!	!LO:LB:g=original	!	!	!	!	!	!	!	!	!	!	!
=44	=44	=44	=44	=44	=44	=44	=44	=44	=44	=44	=44	=44	=44
8D/L	56	8a/	8ff#\	.	.	8B\	n(on)	8a\]	.	2r	.	.	.
8BB/	.	8r	8r	.	.	8B\	au-	8b\	n(on)	.	.	.	.
8E/	#	8g#X/	8b\	.	.	8.B\	-di-	8.g#X\	au-	.	.	.	.
8EE/J	.	8r	8r	.	.	.	.	.	.	.	.	.	.
.	.	.	.	.	.	16A\	.	16a\	-di-	.	.	.	.
8AA/L	.	8a/	8cc#\	.	.	4A\	-ent	8a\	-ent	8r	.	.	.
8BB/	.	8r	8r	.	.	.	.	4a\	ma-	4cc#\	ma-	.	.
8C#/	56	4r	4r	.	.	4r	.	.	.	.	.	.	.
8AA/J	.	.	.	.	.	.	.	8a\	-nus	8cc#\	-nus	.	.
=45	=45	=45	=45	=45	=45	=45	=45	=45	=45	=45	=45	=45	=45
8E\L	#	8e/L	8e/L	00r	.	00r	.	4g#X\	ha-	4b\	ha-	.	.
8F#\	.	8f#/	8f#/	.	.	.	.	.	.	.	.	.	.
!	!	!	!	!	!	!	!	!LO:LB:g=original	!	!	!	!	!
8G#X\	6	8g#X/	8g#X/	.	.	.	.	8e\	-bent	8ee\	-bent	.	.
8E\J	7	8e/J	8e/J	.	.	.	.	8g#\	et	8dd\	et	.	.
!LO:TX:a:t=P:problem:mixed beam	!	!	!	!	!	!	!	!	!	!	!	!	!
8A\L	.	8A/L	8A/L	.	.	.	.	4a\	n(on)	8cc#\	n(on)	.	.
8AA/	.	8B/	8B/	.	.	.	.	.	.	8cc#\	pal-	.	.
!	!	!	!	!	!	!	!	!	!	!LO:LB:g=original	!	!	!
8C#/	65	8c#/	8c#/	.	.	.	.	8.gn\	a-	8ee\L	-pa-	.	.
8AA/J	.	8A/J	8A/J	.	.	.	.	.	.	8cc#\J	.	.	.
.	.	.	.	.	.	.	.	16g\	-do-	.	.	.	.
=46	=46	=46	=46	=46	=46	=46	=46	=46	=46	=46	=46	=46	=46
8D\L	9	8d/L	8d/L	.	.	.	.	8f#\	-ra-	4dd\	-bunt	0r	0r
8E\	.	8e/	8e/	.	.	.	.	8d\	-bunt	.	.	.	.
8F#\	.	8f#/	8f#/	.	.	.	.	4r	.	8dd\	pe-	.	.
8G#\J	.	8g#X/J	8g/J	.	.	.	.	.	.	8dd\	-des	.	.
!LO:LB:g=original	!	!	!	!	!	!	!	!	!	!	!	!	!
8A\L	.	4a/	4a/	.	.	.	.	4r	.	4cc#\	ha-	.	.
8G\	.	.	.	.	.	.	.	.	.	.	.	.	.
8A\	.	4r	4r	.	.	.	.	8r	.	8cc#\	-bent	.	.
8F#\J	6	.	.	.	.	.	.	8f#\	et	8dd\	et	.	.
=47	=47	=47	=47	=47	=47	=47	=47	=47	=47	=47	=47	=47	=47
!	!	!	!LO:TX:a:t=2	!	!	!	!	!	!	!	!	!	!
8G\L	7	0r	0r	.	.	.	.	4f#\	n(on)	8b\L	non	.	.
8F#\	.	.	.	.	.	.	.	.	.	16cc#\L	.	.	.
.	.	.	.	.	.	.	.	.	.	16dd\JJ	.	.	.
8G\	6	.	.	.	.	.	.	8e\	am-	8ee\	am-	.	.
8E\J	.	.	.	.	.	.	.	8e\	-bu-	8ee\	-bu-	.	.
8F#\L	7	.	.	.	.	.	.	4e\	-la-	8a\L	-la-	.	.
8E\	.	.	.	.	.	.	.	.	.	16b\L	.	.	.
.	.	.	.	.	.	.	.	.	.	16cc#\JJ	.	.	.
8F#\	6	.	.	.	.	.	.	8d\	-bunt	8dd\	-bunt	.	.
8D\J	.	.	.	.	.	.	.	8f#\	non	[8dd\	n(on)	.	.
=48	=48	=48	=48	=48	=48	=48	=48	=48	=48	=48	=48	=48	=48
!LO:TX:a:t=P:problem:mixed beam	!	!	!	!	!	!	!	!	!	!	!	!	!
8E/L	7	.	.	.	.	.	.	8g\	.	8dd\]	.	1r	1r
8G/	.	.	.	.	.	.	.	8g\	cla-	8dd\	cla-	.	.
8A/	7	.	.	.	.	.	.	8g\	-ma-	8dd\	-ma-	.	.
8AA\J	.	.	.	.	.	.	.	16g\	-bunt	16cc#\	-bunt	.	.
.	.	.	.	.	.	.	.	16g\	in	16cc#\	in	.	.
!LO:TX:a:t=P:problem:mixed beam	!	!	!	!	!	!	!	!LO:LB:g=original	!	!LO:LB:g=original	!	!	!
8D\L	.	.	.	.	.	.	.	8f#\	gut-	8dd\	gut-	.	.
8d\	.	.	.	.	.	.	.	16f#\	-tu-	16dd\	-tu-	.	.
.	.	.	.	.	.	.	.	16f#\	-re	16dd\	-tr	.	.
8G\	6 5	.	.	.	.	.	.	4e\	su-	(8dd\L	su-	.	.
8A\J	.	.	.	.	.	.	.	.	.	8cc#\J)	.	.	.
!	!	!	!	!	!	!	!	!	!	!	!	!LO:LB:g=original	!
=49	=49	=49	=49	=49	=49	=49	=49	=49	=49	=49	=49	=49	=49
8D\L	.	8dd\	8ff#\	8d\	Si-	0r	.	4f#\	-o	4dd\	-o	8dd\L	8ff#\L
8E\	.	8r	8r	16d\	-mi-	.	.	.	.	.	.	8dd\	8ff#\
.	.	.	.	16d\	-les	.	.	.	.	.	.	.	.
!	!	!	!	!LO:LB:g=original	!	!	!	!	!	!	!	!	!
8F#\	.	8dd\	8ff#\	8d\	il-	.	.	4r	.	4r	.	8dd\	8ff#\
8D\J	.	8r	8r	8d\	-lis	.	.	.	.	.	.	8dd\J	8ff#\J
8A\L	4	8dd\	8ee\	4d\	fi-	.	.	2r	.	2r	.	4a/	4ee\
8G\	.	8r	8r	.	.	.	.	.	.	.	.	.	.
!	!	!LO:LB:g=original	!	!	!	!	!	!	!	!	!	!	!
8A\	.	8cc#\L	8aa\	8c#\	-ant	.	.	.	.	.	.	4r	4r
8F#\J	6	8dd\J	8r	8d\	qui	.	.	.	.	.	.	.	.
!	!	!	!LO:LB:g=original	!	!	!	!	!	!	!	!	!	!
=50	=50	=50	=50	=50	=50	=50	=50	=50	=50	=50	=50	=50	=50
!	!	!	!	!	!	!	!	!	!	!	!	!LO:TX:a:t=2	!LO:TX:a:t=2
8G\L	9	8b/	8aa\	(8G\L	fa-	.	.	0r	.	0r	.	0r	0r
8A\	.	8r	8r	8A\J)	.	.	.	.	.	.	.	.	.
8B\	.	8ee\	8gg\	8B\	-ci-	.	.	.	.	.	.	.	.
8c#\J	.	8r	8r	8c#\	-unt	.	.	.	.	.	.	.	.
!LO:TX:a:t=P:problem:mixed beam	!	!	!	!	!	!	!	!	!	!	!	!	!
8d\L	94	8a/	8gg\	8d\	e-	.	.	.	.	.	.	.	.
8D\J	8 3	8r	8r	8D/	-a	.	.	.	.	.	.	.	.
8r	.	8a/	8ff#\	8r	.	.	.	.	.	.	.	.	.
8d\	.	8r	8r	8d\	et	.	.	.	.	.	.	.	.
!LO:LB:g=original	!	!	!	!	!	!	!	!	!	!	!	!	!
=51	=51	=51	=51	=51	=51	=51	=51	=51	=51	=51	=51	=51	=51
8B\L	3	8dd\	8ff#\	8B\	om-	1r	.	.	.	.	.	.	.
8A\	.	8r	8r	8A\	-nes	.	.	.	.	.	.	.	.
8G#X\	6	8dd\	8ee\	8G#X\	qui	.	.	.	.	.	.	.	.
8E\J	.	8r	8r	8E\	con-	.	.	.	.	.	.	.	.
8A\L	.	4cc#\	4ee\	8A\L	-fi-	.	.	.	.	.	.	.	.
8G#X\	.	.	.	8G#X\J	.	.	.	.	.	.	.	.	.
8A\	.	4r	4r	8A\	-dunt	.	.	.	.	.	.	.	.
8C#\J	6	.	.	8C#/	in	.	.	.	.	.	.	.	.
=52	=52	=52	=52	=52	=52	=52	=52	=52	=52	=52	=52	=52	=52
8D/L	.	2r	2r	8D/L	e-	2r	.	2r	.	2r	.	2r	2r
8BB/	.	.	.	8BB/J	.	.	.	.	.	.	.	.	.
!	!	!	!	!LO:LB:g=original	!	!	!	!	!	!	!	!	!
8E/	.	.	.	4E\	.	.	.	.	.	.	.	.	.
8EE/J	.	.	.	.	.	.	.	.	.	.	.	.	.
!LO:TX:a:t=Tut	!	!	!	!	!	!	!	!	!	!	!	!	!
8AA/L	.	16aa\LL	16aa\LL	8AA/	-a	8c#\L	Do-	4a\	do-	4cc#\	do-	8a/L	8a/L
.	.	16ee\	16ee\	.	.	.	.	.	.	.	.	.	.
8BB/	.	16cc#\	16cc#\	16AA/LL	Do-	8d\J	.	.	.	.	.	16a/L	16a/L
.	.	16a\JJ	16a\JJ	16BB/J	.	.	.	.	.	.	.	16a/JJ	16a/JJ
8C#/	.	16aa\LL	16aa\LL	8C#/J	.	8e\L	-mus	4a\	-mus	4cc#\	-mus	16f#/LL	16a/LL
.	.	16ee\	16ee\	.	.	.	.	.	.	.	.	16f#/	16a/
8AA/J	.	16cc#\	16cc#\	8AA/	-mus	8c#\J	.	.	.	.	.	16f#/	16a/
.	.	16a\JJ	16a\JJ	.	.	.	.	.	.	.	.	16f#/JJ	16a/JJ
!	!	!	!	!	!	!	!	!	!	!	!	!	!LO:LB:g=original
=53	=53	=53	=53	=53	=53	=53	=53	=53	=53	=53	=53	=53	=53
8E\L	#	8g#X/L	16g#X/LL	8E\	I-	8.e\	I-	8.g#X\	I-	8.b\	I-	8a/L	8ee\L
.	.	.	16b/	.	.	.	.	.	.	.	.	.	.
8F#\	.	8a/	16dd/	8F#\	-sra-	.	.	.	.	.	.	16a/L	16ee\L
.	.	.	16b/JJ	.	.	16e\	-sra-	16a\	-sra-	16b\	-sra-	16a/JJ	16ee\JJ
8G#X\	6	8b/	16ee\LL	8G#X\	-el	8B\	-el	8b\	-el	8ee\	-el	16a/LL	16ee\LL
.	.	.	16b\	.	.	.	.	.	.	.	.	16a/	16ee\
8E\J	7	8g#/J	16bb\	8E\	spe-	8e\	spe-	8g#\	spe-	8dd\	spe-	16a/	16ee\
.	.	.	16gg#X\JJ	.	.	.	.	.	.	.	.	16a/JJ	16ee\JJ
!LO:TX:a:t=P:problem:mixed beam	!	!LO:LB:g=original	!LO:TX:a:t=P:problem:mixed beam	!LO:TX:a:t=P:problem:mixed beam	!	!LO:LB:g=original	!	!	!	!	!	!	!
8A\L	.	8cc#\L	16aa\LL	8A\L	-ra-	4A/	-ra-	4a\	-ra-	4cc#\	-ra-	8ff#\L	8aa\L
.	.	.	16a/	.	.	.	.	.	.	.	.	.	.
8AA/	.	8cc#\	16a/	8AA/J	.	.	.	.	.	.	.	8ff#\	8aa\
.	.	.	16a/JJ	.	.	.	.	.	.	.	.	.	.
!	!	!	!LO:LB:g=original	!	!	!	!	!	!	!	!	!	!
!	!	!	!LO:TX:a:t=P:problem:mixed beam	!	!	!	!	!	!	!	!	!	!
8C#/	.	8ee\	16a/LL	8C#/	-vit	8A/	-vit	8a\	-vit	8ee\	-vit	8ff#\	8aa\
.	.	.	16aa\	.	.	.	.	.	.	.	.	.	.
8AA/J	.	8cc#\J	16aa\	8AA/	in	8A/	in	8a\	in	8cc#\	in	8ff#\J	8aa\J
.	.	.	16aa\JJ	.	.	.	.	.	.	.	.	.	.
=54	=54	=54	=54	=54	=54	=54	=54	=54	=54	=54	=54	=54	=54
8D\L	9	16dd\LL	16ff#\LL	8D\	D(o-	8A/	Do-	8f#\	Do-	8dd\	Do-	8ff#\L	8aa\L
.	.	16ff#\	16ddd\	.	.	.	.	.	.	.	.	.	.
8E\	.	16ff#\	16ddd\	8E\	-mi)-	8A/	-mi-	8gn\	-mi-	8cc#\	-mi-	8ff#\	8aa\
.	.	16ff#\JJ	16ddd\JJ	.	.	.	.	.	.	.	.	.	.
!	!	!	!	!	!	!	!	!LO:LB:g=original	!	!LO:LB:g=original	!	!	!
8F#\	.	16ff#\LL	16ddd\LL	8F#\	-no	8d\	-no	8a\	-no	8dd\	-no	8ff#\	8aa\
.	.	16ff#\	16ddd\	.	.	.	.	.	.	.	.	.	.
8G#\J	.	16ff#\	16ddd\	8Gn\	ad	8d\	ad-	8b\	ad-	8dd\	ad-	8ff#\J	8aa\J
.	.	16ff#\JJ	16ddd\JJ	.	.	.	.	.	.	.	.	.	.
8A\L	.	16ee\LL	16ddd\LL	8A\L	ju-	4A\	-ju-	4e\	-ju-	4cc#\	-ju-	8a/L	8ee\L
.	.	16ee\	16ccc#\	.	.	.	.	.	.	.	.	.	.
8G#\	.	16ee\	16ccc#\	8G\J	.	.	.	.	.	.	.	8a/	8ee\
.	.	16ee\JJ	16ccc#\JJ	.	.	.	.	.	.	.	.	.	.
8A\	.	16ee\LL	16ccc#\LL	8A\	-tor	8A\	-tor	8e\	-tor	8cc#\	-tor	8a/	8ee\
.	.	16ee\	16ccc#\	.	.	.	.	.	.	.	.	.	.
8F#\J	6	16ff#\	16ddd\	8F#\	e-	8d\	e-	8a\	e-	8ff#\	e-	8dd/J	8ff#\J
.	.	16ff#\JJ	16ddd\JJ	.	.	.	.	.	.	.	.	.	.
!	!	!	!	!LO:LB:g=original	!	!	!	!	!	!	!	!LO:LB:g=original	!
=55	=55	=55	=55	=55	=55	=55	=55	=55	=55	=55	=55	=55	=55
8G\L	7	16ff#\LL	16bb\LL	(8G\L	-o-	4B\	-o-	(8b\L	-o-	8ff#\L	-o-	8gg\L	8bb\L
.	.	16ff#\	16bb\	.	.	.	.	.	.	.	.	.	.
8F#\	.	16ff#\	16aa\	8F#\J)	.	.	.	8a\J)	.	16ee\L	.	8ff#\	8aa\
.	.	16ff#\JJ	16aa\JJ	.	.	.	.	.	.	16dd\JJ	.	.	.
8G\	6	16ee\LL	16bb\LL	(8G\L	-rum	4e\	-rum	(8b\L	-rum	4ee\	-rum	8gg\	8bb\
.	.	16ee\	16bb\	.	.	.	.	.	.	.	.	.	.
8E\J	.	16ee\	16gg\	8E\J)	.	.	.	8g\J)	.	.	.	8ee\J	8gg\J
.	.	16ee\JJ	16gg\JJ	.	.	.	.	.	.	.	.	.	.
8F#\L	7	16ee\LL	16aa\LL	8F#\	et	4A\	et	(8a\L	et	8ee\	et	8ff#\L	8aa\L
.	.	16ee\	16aa\	.	.	.	.	.	.	.	.	.	.
8E\	.	16ee\	16gg\	8E\	pro-	.	.	8g\J)	.	16dd\LL	pro-	8ee\	8gg\
.	.	16ee\JJ	16gg\JJ	.	.	.	.	.	.	16cc#\JJ	.	.	.
8F#\	6	16dd\LL	16aa\LL	(8F#\L	-te-	4d\	pro-	(8a\L	pro-	[4dd\	-te-	8ff#\	8aa\
.	.	16dd\	16aa\	.	.	.	.	.	.	.	.	.	.
8D\J	.	16dd\	16ff#\	8D\J)	.	.	.	8f#\J)	.	.	.	8dd\J	8ff#\J
.	.	16dd\JJ	16ff#\JJ	.	.	.	.	.	.	.	.	.	.
!	!	!LO:LB:g=original	!	!	!	!	!	!	!	!	!	!	!
=56	=56	=56	=56	=56	=56	=56	=56	=56	=56	=56	=56	=56	=56
!LO:TX:a:t=P:problem:mixed beam	!	!	!	!LO:TX:a:t=P:problem:mixed beam	!	!	!	!	!	!	!	!	!
8E/L	7	16dd\LL	16gg\LL	8E/L	.	4B\	-tec-	4g\	-tec-	4.dd\]	.	8ee\L	8gg\L
.	.	16dd\	16gg\	.	.	.	.	.	.	.	.	.	.
8G/	.	16dd\	16gg\	8G/	.	.	.	.	.	.	.	8ee\	8gg\
.	.	16dd\JJ	16gg\JJ	.	.	.	.	.	.	.	.	.	.
8A/	7	16dd\LL	16gg\LL	8A/	.	8B\	-tor	8g\	-tor	.	.	8ee\	8gg\
.	.	16dd\	16gg\	.	.	.	.	.	.	.	.	.	.
8AA\J	.	16cc#\	16gg\	8AA\J	.	8A/	e-	8g\	e-	8cc#\	.	8ee\J	8gg\J
.	.	16cc#\JJ	16gg\JJ	.	.	.	.	.	.	.	.	.	.
!LO:LB:g=original	!	!	!LO:LB:g=original	!	!	!LO:LB:g=original	!	!	!	!	!	!	!
8D\L	.	16dd\LL	16ff#\LL	8D/	-ctor	4A\	-o-	4f#\	-o-	8dd\	-ctor	8dd\L	8ff#\L
.	.	16dd\	16ff#\	.	.	.	.	.	.	.	.	.	.
8d\	.	16dd\	16ff#\	8d\	e-	.	.	.	.	8dd\	e-	8dd\	8ff#\
.	.	16dd\JJ	16ff#\JJ	.	.	.	.	.	.	.	.	.	.
8G\	.	16dd\LL	16ee\LL	8G\	-o-	8B\L	-rum	8.e\	-rum	8ee\	-o-	8a\	8ee\
.	.	16dd\	16ee\	.	.	.	.	.	.	.	.	.	.
8A\J	.	16cc#\	16ee\	8A\	-rum	8A\J	.	.	.	8cc#\	-rum	8a\J	8ee\J
.	.	16cc#\JJ	16ee\JJ	.	.	.	.	16e\	.	.	.	.	.
=57	=57	=57	=57	=57	=57	=57	=57	=57	=57	=57	=57	=57	=57
4D/	.	4dd\	4ff#\	4D/	est.	4A\	est.	4f#\	est	4dd\	est	4ff#\	4ff#\
4r	.	4r	4r	4r	.	4r	.	4r	.	4r	.	4r	4r
2r	.	2r	2r	2r	.	2r	.	2r	.	2r	.	2r	2r
!	!	!LO:LB:g=original	!	!LO:LB:g=original	!	!	!	!LO:LB:g=original	!	!LO:LB:g=original	!	!LO:LB:g=original	!LO:LB:g=original
=58||	=58||	=58||	=58||	=58||	=58||	=58||	=58||	=58||	=58||	=58||	=58||	=58||	=58||
*k[f#c#g#]	*	*k[f#c#g#]	*k[f#c#g#]	*k[f#c#g#]	*	*k[f#c#g#]	*	*k[f#c#g#]	*	*k[f#c#g#]	*	*k[f#c#g#]	*k[f#c#g#]
*M3/4	*	*M3/4	*M3/4	*M3/4	*	*M3/4	*	*M3/4	*	*M3/4	*	*M3/4	*M3/4
!	!	!	!LO:TX:a:t=P:problem:mixed beam	!	!	!	!	!	!	!LO:TX:a:t=5	!	!	!
!	!	!	!	!LO:N:vis=00	!	!LO:N:vis=00	!	!LO:N:vis=00	!	!LO:N:vis=00	!	!LO:N:vis=00	!LO:N:vis=00
4AA/	.	4cc#\	8.a/L	0.r	.	0.r	.	0.r	.	0.r	.	0.r	0.r
.	.	.	16aa\K	.	.	.	.	.	.	.	.	.	.
4C#/	.	4ee\	8.aa\	.	.	.	.	.	.	.	.	.	.
.	.	.	16aa\K	.	.	.	.	.	.	.	.	.	.
4AA/	.	4cc#\	8.aa\	.	.	.	.	.	.	.	.	.	.
.	.	.	16aa\Jk	.	.	.	.	.	.	.	.	.	.
=59	=59	=59	=59	=59	=59	=59	=59	=59	=59	=59	=59	=59	=59
4D\	6 5	8.b/L	8.aa\L	.	.	.	.	.	.	.	.	.	.
.	.	16b/K	16aa\K	.	.	.	.	.	.	.	.	.	.
4BB\	.	8.b/	8.aa\	.	.	.	.	.	.	.	.	.	.
.	.	16b/K	16aa\Jk	.	.	.	.	.	.	.	.	.	.
4E\	.	8.b/	8.gg#\L	.	.	.	.	.	.	.	.	.	.
.	.	16b/Jk	16gg#\Jk	.	.	.	.	.	.	.	.	.	.
=60	=60	=60	=60	=60	=60	=60	=60	=60	=60	=60	=60	=60	=60
4A\	.	8.cc#/L	8.aa\L	.	.	.	.	.	.	.	.	.	.
.	.	16a/K	16cc#\K	.	.	.	.	.	.	.	.	.	.
4r	.	8.cc#/	8.ee\	.	.	.	.	.	.	.	.	.	.
.	.	16a/K	16cc#\Jk	.	.	.	.	.	.	.	.	.	.
4r	.	8.b/	8.dd\L	.	.	.	.	.	.	.	.	.	.
.	.	16g#/Jk	16b\Jk	.	.	.	.	.	.	.	.	.	.
!	!	!	!LO:LB:g=original	!	!	!	!	!	!	!	!	!	!
=61	=61	=61	=61	=61	=61	=61	=61	=61	=61	=61	=61	=61	=61
4A\	.	8.a/L	8.cc#\L	.	.	.	.	.	.	.	.	.	.
.	.	16cc#/K	16ee\K	.	.	.	.	.	.	.	.	.	.
4r	.	8.cc#/	8.ee\	.	.	.	.	.	.	.	.	.	.
.	.	16a/K	16cc#\K	.	.	.	.	.	.	.	.	.	.
4r	.	8.b/	8.dd\	.	.	.	.	.	.	.	.	.	.
.	.	16g#/Jk	16b\Jk	.	.	.	.	.	.	.	.	.	.
=62	=62	=62	=62	=62	=62	=62	=62	=62	=62	=62	=62	=62	=62
!	!	!	!LO:TUP:a	!LO:N:vis=00	!	!LO:N:vis=00	!	!LO:N:vis=00	!	!	!	!LO:N:vis=00	!LO:N:vis=00
8A\L	.	4a/	12cc#\L	0.r	.	0.r	.	0.r	.	2.r	.	0.r	0.r
.	.	.	12b\	.	.	.	.	.	.	.	.	.	.
8D\J	.	.	.	.	.	.	.	.	.	.	.	.	.
.	.	.	12a\J	.	.	.	.	.	.	.	.	.	.
4E\	5 4	4a/	4.b\	.	.	.	.	.	.	.	.	.	.
4EE/	3	4g#/	.	.	.	.	.	.	.	.	.	.	.
.	.	.	8b\	.	.	.	.	.	.	.	.	.	.
=63	=63	=63	=63	=63	=63	=63	=63	=63	=63	=63	=63	=63	=63
4AA/	.	4a/	4a/	.	.	.	.	.	.	4ee\	Qui	.	.
4r	.	4r	4r	.	.	.	.	.	.	4cc#\	ti-	.	.
4A\	.	4a/	4cc#\	.	.	.	.	.	.	4ee\	-ment	.	.
!LO:PB:g=original	!	!LO:LB:g=original	!	!	!	!	!	!	!	!	!	!	!
=64	=64	=64	=64	=64	=64	=64	=64	=64	=64	=64	=64	=64	=64
4F#\	-3	4a/	4cc#\	.	.	.	.	.	.	4.a\	Do-	.	.
4r	.	4r	4r	.	.	.	.	.	.	.	.	.	.
.	.	.	.	.	.	.	.	.	.	8a\	-mi-	.	.
4F#\	.	4a/	4cc#\	.	.	.	.	.	.	4a\	-num	.	.
=65	=65	=65	=65	=65	=65	=65	=65	=65	=65	=65	=65	=65	=65
4D\	.	4a/	4dd\	.	.	.	.	.	.	4r	.	.	.
4r	.	4r	4r	.	.	.	.	.	.	4ff#\	spe-	.	.
4A\	.	4a/	4cc#\	.	.	.	.	.	.	4ee\	-ra-	.	.
=66	=66	=66	=66	=66	=66	=66	=66	=66	=66	=66	=66	=66	=66
!	!	!	!	!LO:N:vis=00	!	!LO:N:vis=00	!	!LO:N:vis=00	!	!	!	!LO:N:vis=00	!LO:N:vis=00
4B\	-	4f#/	4dd\	0.r	.	0.r	.	0.r	.	4dd\	-ve-	0.r	0.r
4r	.	4r	4r	.	.	.	.	.	.	4dd\	-runt	.	.
4G#X\	6	4e/	4dd\	.	.	.	.	.	.	4ee\	in	.	.
=67	=67	=67	=67	=67	=67	=67	=67	=67	=67	=67	=67	=67	=67
4A\	.	4e/	4cc#\	.	.	.	.	.	.	8cc#\	Do-	.	.
.	.	.	.	.	.	.	.	.	.	8b\	-mi-	.	.
4r	.	4r	4r	.	.	.	.	.	.	4a\	-no	.	.
4A\	.	4e/	4cc#\	.	.	.	.	.	.	4cc#\	a-	.	.
=68	=68	=68	=68	=68	=68	=68	=68	=68	=68	=68	=68	=68	=68
4G#\	6	4e/	4b\	.	.	.	.	.	.	4b\	-diu-	.	.
4r	.	4r	4r	.	.	.	.	.	.	4b\	-tor	.	.
4G#\	.	4e/	4b\	.	.	.	.	.	.	4ee\	e-	.	.
!	!	!	!LO:LB:g=original	!	!	!	!	!	!	!LO:PB:g=original	!	!	!
=69	=69	=69	=69	=69	=69	=69	=69	=69	=69	=69	=69	=69	=69
*	*	*	*	*	*	*	*	*	*	*2\right	*	*	*
4F#\	7	4f#/	4a/	.	.	.	.	.	.	2a\	-o-	.	.
4r	.	4r	4r	.	.	.	.	.	.	.	.	.	.
4D#X\	5	4f#/	4a/	.	.	.	.	.	.	4cc#\	-rum	.	.
=70	=70	=70	=70	=70	=70	=70	=70	=70	=70	=70	=70	=70	=70
!	!	!	!	!LO:N:vis=00	!	!LO:N:vis=00	!	!LO:N:vis=0	!	!	!	!LO:N:vis=00	!LO:N:vis=00
4E\	.	4B/	4g#/	0.r	.	0.r	.	1.r	.	4.b\	et	0.r	0.r
4r	.	4r	4r	.	.	.	.	.	.	.	.	.	.
.	.	.	.	.	.	.	.	.	.	8a\	pro-	.	.
4G#\	.	4e/	4b\	.	.	.	.	.	.	4g#\	-tec-	.	.
=71	=71	=71	=71	=71	=71	=71	=71	=71	=71	=71	=71	=71	=71
4A\	.	4e/	4cc#\	.	.	.	.	.	.	8f#\	-tor	.	.
.	.	.	.	.	.	.	.	.	.	8a\	e-	.	.
4r	.	4r	4r	.	.	.	.	.	.	4g#X/	-o-	.	.
4B\	.	4a/	4dd#X\	.	.	.	.	.	.	8f/L	-rum	.	.
.	.	.	.	.	.	.	.	.	.	8e/J	.	.	.
=72	=72	=72	=72	=72	=72	=72	=72	=72	=72	=72	=72	=72	=72
4E\	.	4g#/	4ee\	.	.	.	.	4e\	Do-	4e/	est	.	.
4r	.	4r	4r	.	.	.	.	4g#\	.	4r	.	.	.
4E\	.	4b/	4gg#\	.	.	.	.	8f#\	-mi-	4r	.	.	.
.	.	.	.	.	.	.	.	8e\	-nus	.	.	.	.
!LO:LB:g=original	!	!LO:LB:g=original	!	!	!	!	!	!	!	!	!	!	!
=73	=73	=73	=73	=73	=73	=73	=73	=73	=73	=73	=73	=73	=73
!	!	!	!	!	!	!	!	!	!	!LO:N:vis=00	!	!	!
*	*	*	*	*	*	*	*	*2\right	*	*	*	*	*
4D/	6	4b/	4ff#\	.	.	.	.	2b\	me-	0.r	.	.	.
4r	.	4r	4r	.	.	.	.	.	.	.	.	.	.
4BB/	#	4b/	4dd#X\	.	.	.	.	4b\	-mor	.	.	.	.
=74	=74	=74	=74	=74	=74	=74	=74	=74	=74	=74	=74	=74	=74
!	!	!	!	!LO:N:vis=00	!	!LO:N:vis=00	!	!	!	!	!	!LO:N:vis=00	!LO:N:vis=00
4C#/	6	4a/	4ee\	0.r	.	0.r	.	8a\L	fu-	.	.	0.r	0.r
.	.	.	.	.	.	.	.	16b\L	.	.	.	.	.
.	.	.	.	.	.	.	.	16cc#\JJ	.	.	.	.	.
4r	.	4r	4r	.	.	.	.	4.b\	.	.	.	.	.
4D#X/	-5	4a/	4ff#\	.	.	.	.	.	.	.	.	.	.
.	.	.	.	.	.	.	.	8a\	-it	.	.	.	.
=75	=75	=75	=75	=75	=75	=75	=75	=75	=75	=75	=75	=75	=75
4E\	.	4g#/	4ee\	.	.	.	.	4g#\	nos-	.	.	.	.
4r	.	4r	4r	.	.	.	.	8e\	-tri	.	.	.	.
.	.	.	.	.	.	.	.	8e\	et	.	.	.	.
4Dn/	4 2	4g#/	4b\	.	.	.	.	8f#\	be-	.	.	.	.
.	.	.	.	.	.	.	.	8g#\	-ne-	.	.	.	.
=76	=76	=76	=76	=76	=76	=76	=76	=76	=76	=76	=76	=76	=76
4C#/	.	4e/	4cc#\	.	.	.	.	2a\	-di-	.	.	.	.
4r	.	4r	4r	.	.	.	.	.	.	.	.	.	.
4AA/	.	4e/	4cc#\	.	.	.	.	4a\	-xit	.	.	.	.
!	!	!	!	!	!	!	!	!LO:LB:g=original	!	!	!	!	!
=77	=77	=77	=77	=77	=77	=77	=77	=77	=77	=77	=77	=77	=77
!	!	!	!	!	!	!	!	!	!	!LO:N:vis=00	!	!	!
4D\	.	4f#/	4ddn\	.	.	.	.	8a\L	no-	0.r	.	.	.
.	.	.	.	.	.	.	.	8f#\J	.	.	.	.	.
4r	.	4r	4r	.	.	.	.	4.g#\	.	.	.	.	.
4E\	.	4g#/	4b/	.	.	.	.	.	.	.	.	.	.
.	.	.	.	.	.	.	.	8a\	.	.	.	.	.
!	!	!	!LO:LB:g=original	!	!	!	!	!	!	!	!	!	!
=78	=78	=78	=78	=78	=78	=78	=78	=78	=78	=78	=78	=78	=78
!	!	!	!	!LO:N:vis=00	!	!	!	!	!	!	!	!LO:N:vis=00	!LO:N:vis=00
4AA/	.	4e/	4cc#\	0.r	.	4e\	Be-	4a\	-bis.	.	.	0.r	0.r
4r	.	4r	4r	.	.	4c#\	.	4r	.	.	.	.	.
4E\	.	4e/	4cc#\	.	.	4e\	-ne-	4r	.	.	.	.	.
=79	=79	=79	=79	=79	=79	=79	=79	=79	=79	=79	=79	=79	=79
!	!	!	!	!	!	!	!	!LO:N:vis=00	!	!	!	!	!
4G#\	-3	4f#/	4cc#\	.	.	2A/	-di-	0.r	.	.	.	.	.
4r	.	4r	4r	.	.	.	.	.	.	.	.	.	.
4G#\	.	4f#/	4cc#\	.	.	4A/	-xit	.	.	.	.	.	.
=80	=80	=80	=80	=80	=80	=80	=80	=80	=80	=80	=80	=80	=80
4D\	.	4f#/	4dd\	.	.	4.f#\	do-	.	.	.	.	.	.
4r	.	4r	4r	.	.	.	.	.	.	.	.	.	.
.	.	.	.	.	.	8e\	-mu-	.	.	.	.	.	.
4C#/	.	4a/	4ee\	.	.	4e\	-i	.	.	.	.	.	.
!	!	!	!	!	!	!LO:PB:g=original	!	!	!	!	!	!	!
=81	=81	=81	=81	=81	=81	=81	=81	=81	=81	=81	=81	=81	=81
!	!	!	!	!	!	!	!	!	!	!LO:N:vis=00	!	!	!
4BB/	-	4a/	4dd\	.	.	8d\L	I-	.	.	0.r	.	.	.
.	.	.	.	.	.	16e\L	.	.	.	.	.	.	.
.	.	.	.	.	.	16f#\JJ	.	.	.	.	.	.	.
4r	.	4r	4r	.	.	4.e\	-sra-	.	.	.	.	.	.
!LO:LB:g=original	!	!	!	!	!	!	!	!	!	!	!	!	!
4GG#/	6	4e/	4b/	.	.	.	.	.	.	.	.	.	.
.	.	.	.	.	.	8d\	.	.	.	.	.	.	.
!	!	!LO:LB:g=original	!	!	!	!	!	!	!	!	!	!	!
=82	=82	=82	=82	=82	=82	=82	=82	=82	=82	=82	=82	=82	=82
!	!	!	!	!LO:N:vis=00	!	!	!	!	!	!	!	!LO:N:vis=00	!LO:N:vis=00
4AA/	.	4e/	4cc#\	0.r	.	4c#\	-el	.	.	.	.	0.r	0.r
4r	.	4r	4r	.	.	4c#\	be-	.	.	.	.	.	.
4A\	.	4cc#\	4ee\	.	.	4c#\	-ne-	.	.	.	.	.	.
=83	=83	=83	=83	=83	=83	=83	=83	=83	=83	=83	=83	=83	=83
!	!	!	!	!	!	!	!	!LO:N:vis=00	!	!	!	!	!
*	*	*	*	*	*	*2\right	*	*	*	*	*	*	*
4G#\	6	4b/	4ee\	.	.	2B\	-di-	0.r	.	.	.	.	.
4r	.	4r	4r	.	.	.	.	.	.	.	.	.	.
4G#\	.	4b/	4ee\	.	.	4e\	-xit	.	.	.	.	.	.
=84	=84	=84	=84	=84	=84	=84	=84	=84	=84	=84	=84	=84	=84
4F#\	7	4a/	4ff#\	.	.	4.A/	do-	.	.	.	.	.	.
4r	.	4r	4r	.	.	.	.	.	.	.	.	.	.
.	.	.	.	.	.	8A/	-mu-	.	.	.	.	.	.
4D#X/	5	4a/	4ee\	.	.	4A/	-i	.	.	.	.	.	.
=85	=85	=85	=85	=85	=85	=85	=85	=85	=85	=85	=85	=85	=85
!	!	!	!	!	!	!	!	!	!	!LO:N:vis=0	!	!	!
4E\	.	4g#/	4b\	.	.	8G#/L	A-	.	.	1.r	.	.	.
.	.	.	.	.	.	8F#/J	.	.	.	.	.	.	.
4r	.	4r	4r	.	.	4G#/	.	.	.	.	.	.	.
4B\	#	4f#/	4dd#X\	.	.	8F#/L	.	.	.	.	.	.	.
.	.	.	.	.	.	8E/J	.	.	.	.	.	.	.
=86	=86	=86	=86	=86	=86	=86	=86	=86	=86	=86	=86	=86	=86
!	!	!	!	!	!	!	!	!	!	!	!	!LO:N:vis=00	!LO:N:vis=00
4E\	.	4g#/	4ee\	4B\	Be-	4E/	-ron.	.	.	.	.	0.r	0.r
4G#\	.	4r	4r	4G#\	.	4r	.	.	.	.	.	.	.
4E\	.	4r	4r	4B\	-ne-	4r	.	.	.	.	.	.	.
!	!	!	!LO:LB:g=original	!	!	!LO:LB:g=original	!	!	!	!	!	!	!
=87	=87	=87	=87	=87	=87	=87	=87	=87	=87	=87	=87	=87	=87
!	!	!LO:TX:a:t=10	!LO:N:vis=00	!	!	!LO:N:vis=00	!	!LO:N:vis=00	!	!	!	!	!
!	!	!LO:N:vis=00	!	!	!	!	!	!	!	!	!	!	!
4A\	.	0.r	0.r	2c#\	-di-	0.r	.	0.r	.	4ee\	Be-	.	.
4A\	.	.	.	.	.	.	.	.	.	4cc#\	.	.	.
4A\	.	.	.	4c#\	-xit	.	.	.	.	4ee\	-ne-	.	.
=88	=88	=88	=88	=88	=88	=88	=88	=88	=88	=88	=88	=88	=88
4D/	76	.	.	4.c#\	do-	.	.	.	.	2ff#\	-di-	.	.
4r	.	.	.	.	.	.	.	.	.	.	.	.	.
.	.	.	.	8B\	-mu-	.	.	.	.	.	.	.	.
4D/	.	.	.	4A\	-i	.	.	.	.	4ff#\	-xit	.	.
=89	=89	=89	=89	=89	=89	=89	=89	=89	=89	=89	=89	=89	=89
*	*	*	*	*2\right	*	*	*	*	*	*	*	*	*
4E\	98	.	.	2.G#\	A-	.	.	.	.	4.ff#\	do-	.	.
4r	.	.	.	.	.	.	.	.	.	.	.	.	.
.	.	.	.	.	.	.	.	.	.	8ee\	-mu-	.	.
4E\	.	.	.	.	.	.	.	.	.	4dd\	-i	.	.
!	!	!	!	!	!	!	!	!	!	!LO:LB:g=original	!	!	!
=90	=90	=90	=90	=90	=90	=90	=90	=90	=90	=90	=90	=90	=90
!	!	!	!	!	!	!	!	!	!	!	!	!LO:N:vis=00	!LO:N:vis=00
4A\	.	.	.	4A\	-a-	.	.	.	.	8cc#\L	a-	0.r	0.r
.	.	.	.	.	.	.	.	.	.	8b\J	.	.	.
4r	.	.	.	4A\	-ron	.	.	.	.	4a\	-ron	.	.
4A\	.	.	.	8A\	be-	.	.	.	.	8cc#\	be-	.	.
.	.	.	.	8c#\	-ne-	.	.	.	.	8ee\	-ne-	.	.
!LO:LB:g=original	!	!	!	!	!	!	!	!	!	!	!	!	!
=91	=91	=91	=91	=91	=91	=91	=91	=91	=91	=91	=91	=91	=91
!	!	!	!LO:N:vis=00	!	!	!LO:N:vis=00	!	!LO:N:vis=00	!	!	!	!	!
!	!	!LO:N:vis=00	!	!	!	!	!	!	!	!	!	!	!
4D\	.	0.r	0.r	2d\	-di-	0.r	.	0.r	.	2ff#\	-di-	.	.
4r	.	.	.	.	.	.	.	.	.	.	.	.	.
4D\	.	.	.	4d\	-xit	.	.	.	.	4ff#\	-xit	.	.
=92	=92	=92	=92	=92	=92	=92	=92	=92	=92	=92	=92	=92	=92
4E\	7	.	.	4.B\	om-	.	.	.	.	4.dd\	om-	.	.
4r	.	.	.	.	.	.	.	.	.	.	.	.	.
.	.	.	.	8B\	-ni-	.	.	.	.	8dd\	-ni-	.	.
4E\	.	.	.	4B\	-bus	.	.	.	.	4dd\	-bus	.	.
!	!	!	!	!LO:LB:g=original	!	!	!	!	!	!	!	!	!
=93	=93	=93	=93	=93	=93	=93	=93	=93	=93	=93	=93	=93	=93
4G#\	.	.	.	4B\	qui	.	.	.	.	4b\	qui	.	.
4r	.	.	.	4B\	ti-	.	.	.	.	4ee\	ti-	.	.
4E\	.	.	.	4G#\	-ment	.	.	.	.	4dd\	-ment	.	.
=94	=94	=94	=94	=94	=94	=94	=94	=94	=94	=94	=94	=94	=94
!	!	!	!	!	!	!	!	!	!	!	!	!LO:N:vis=0	!LO:N:vis=0
4A\	.	.	.	8A\	D(o-	.	.	.	.	8cc#\	D(o-	1.r	1.r
.	.	.	.	8A\	-mi)-	.	.	.	.	8b\	-mi)-	.	.
4r	.	.	.	4A\	-nu	.	.	.	.	4a\	-num	.	.
4A\	.	.	.	4A\	pus-	.	.	.	.	4a\	pu-	.	.
=95	=95	=95	=95	=95	=95	=95	=95	=95	=95	=95	=95	=95	=95
!	!	!LO:N:vis=0	!LO:N:vis=0	!	!	!LO:N:vis=00	!	!LO:N:vis=00	!	!	!	!	!
4D/	.	1.r	1.r	4F#\	-si-	0.r	.	0.r	.	4dd\	-sil-	.	.
4r	.	.	.	4Gn\	-lis	.	.	.	.	4ee\	-lis	.	.
4D/	.	.	.	4A\	cum	.	.	.	.	4ff#\	cum	.	.
=96	=96	=96	=96	=96	=96	=96	=96	=96	=96	=96	=96	=96	=96
4Gn\	.	.	.	8G#\L	ma-	.	.	.	.	8ee\L	ma-	2.r	2.r
.	.	.	.	8F#\J	.	.	.	.	.	8dd\J	.	.	.
!	!	!	!	!	!	!	!	!	!	!LO:LB:g=original	!	!	!
4r	.	.	.	4.E\	-jo-	.	.	.	.	4.cc#\	-jo-	.	.
4A\	-7	.	.	.	.	.	.	.	.	.	.	.	.
.	.	.	.	8F#\	-ri-	.	.	.	.	8dd\	-ri-	.	.
=97	=97	=97	=97	=97	=97	=97	=97	=97	=97	=97	=97	=97	=97
4D\	.	8.dd\L	8.ff#\L	4F#\	-bus	.	.	.	.	4dd\	-bus	8r	8r
.	.	.	.	.	.	.	.	.	.	.	.	8ff#\	8aa\
.	.	16ff#\K	16aa\K	.	.	.	.	.	.	.	.	.	.
4r	.	8.ff#\	8.aa\	4r	.	.	.	.	.	4r	.	8ff#\L	8aa\L
.	.	.	.	.	.	.	.	.	.	.	.	8ee\	8gg#\
.	.	16dd\K	16ff#\K	.	.	.	.	.	.	.	.	.	.
4A\	.	8.ee\	8.ggn\	4r	.	.	.	.	.	4r	.	8ee\	8gg#\
.	.	.	.	.	.	.	.	.	.	.	.	8dd\J	8ff#\J
.	.	16cc#\Jk	16ee\Jk	.	.	.	.	.	.	.	.	.	.
=98	=98	=98	=98	=98	=98	=98	=98	=98	=98	=98	=98	=98	=98
!	!	!	!	!LO:N:vis=00	!	!	!	!	!	!LO:N:vis=00	!	!	!
4D\	.	8.dd\L	8.ff#\L	0.r	.	.	.	.	.	0.r	.	8r	8r
.	.	.	.	.	.	.	.	.	.	.	.	8ee\	8gg#\
.	.	16ff#\K	16aa\K	.	.	.	.	.	.	.	.	.	.
4r	.	8.ff#\	8.aa\	.	.	.	.	.	.	.	.	8ee\L	8gg#\L
.	.	.	.	.	.	.	.	.	.	.	.	8ee\	8gg#\
.	.	16dd\K	16ff#\K	.	.	.	.	.	.	.	.	.	.
4A\	.	8.ee\	8.ggn\	.	.	.	.	.	.	.	.	8ee\	8gg#\
.	.	.	.	.	.	.	.	.	.	.	.	8a\J	8ee\J
.	.	16cc#\Jk	16ee\Jk	.	.	.	.	.	.	.	.	.	.
!	!	!LO:LB:g=original	!	!	!	!	!	!	!	!	!	!	!
=99	=99	=99	=99	=99	=99	=99	=99	=99	=99	=99	=99	=99	=99
!	!	!LO:TX:a:t=P:problem:mixed beam	!LO:TUP:a	!	!	!	!	!	!	!	!	!	!
4D\	.	8dd\L	12ff#\L	.	.	2.r	.	2.r	.	.	.	8dd\L	8ff#\L
.	.	.	12ee\	.	.	.	.	.	.	.	.	.	.
.	.	8f#/J	.	.	.	.	.	.	.	.	.	8a\J	8ee\J
.	.	.	12dd\J	.	.	.	.	.	.	.	.	.	.
4r	.	4e/	4.cc#\	.	.	.	.	.	.	.	.	4dd\	4ff#\
4A\	.	4f#/	.	.	.	.	.	.	.	.	.	8a/L	8ee\L
.	.	.	8dd\	.	.	.	.	.	.	.	.	8f#/J	8dd\J
!LO:LB:g=original	!	!	!	!	!	!	!	!	!	!	!	!	!
=100	=100	=100	=100	=100	=100	=100	=100	=100	=100	=100	=100	=100	=100
4D\	.	4f#/	4dd\	.	.	4d\	a-	4f#\	a-	.	.	4f#/	4dd\
4r	.	2r	4r	.	.	4d\	-dji-	4f#\	-di-	.	.	4r	4r
4D\	.	.	4r	.	.	8d\	-ci-	8f#\	-ci-	.	.	4r	4r
.	.	.	.	.	.	8d\	-at	8f#\	-at	.	.	.	.
=101	=101	=101	=101	=101	=101	=101	=101	=101	=101	=101	=101	=101	=101
!	!	!LO:N:vis=0	!LO:N:vis=0	!	!	!	!	!	!	!	!	!LO:N:vis=00	!LO:N:vis=00
4A\	43	1.r	1.r	.	.	4d\	Do-	4.e\	Do-	.	.	0.r	0.r
4r	.	.	.	.	.	8c#\L	-mi-	.	.	.	.	.	.
.	.	.	.	.	.	8B\J	.	8e\	-mi-	.	.	.	.
4F#\	.	.	.	.	.	4A\	-nus	4f#\	-nus	.	.	.	.
=102	=102	=102	=102	=102	=102	=102	=102	=102	=102	=102	=102	=102	=102
!	!	!	!	!LO:N:vis=00	!	!	!	!	!	!LO:N:vis=00	!	!	!
4Gn\	.	.	.	0.r	.	4B\	su-	4d\	su-	0.r	.	.	.
4r	.	.	.	.	.	4e\	.	4gn\	.	.	.	.	.
4G\	56	.	.	.	.	4d\	-per	4f#\	-per	.	.	.	.
=103	=103	=103	=103	=103	=103	=103	=103	=103	=103	=103	=103	=103	=103
4A\	.	8r	8r	.	.	2c#\	vus	2e\	vos	.	.	.	.
.	.	4aa\	4aa\	.	.	.	.	.	.	.	.	.	.
4r	.	.	.	.	.	.	.	.	.	.	.	.	.
.	.	8ee\	8ee\	.	.	.	.	.	.	.	.	.	.
4A\	.	4a/	4a/	.	.	4c#\	et	4e\	et	.	.	.	.
!	!	!	!LO:LB:g=original	!	!	!	!	!LO:LB:g=original	!	!	!	!	!
=104	=104	=104	=104	=104	=104	=104	=104	=104	=104	=104	=104	=104	=104
4G#\	6	8r	8r	.	.	4d\	su-	2f#\	su-	.	.	.	.
.	.	4dd\	4dd\	.	.	.	.	.	.	.	.	.	.
4r	.	.	.	.	.	4A\	.	.	.	.	.	.	.
.	.	8a/	8a/	.	.	.	.	.	.	.	.	.	.
4D\	.	4d/	4d/	.	.	4d\	-per	4f#\	-per	.	.	.	.
=105	=105	=105	=105	=105	=105	=105	=105	=105	=105	=105	=105	=105	=105
!	!	!	!	!	!	!	!	!	!	!	!	!LO:N:vis=00	!LO:N:vis=00
4Gn\	.	8r	8r	.	.	4.B\	Fi-	4gn\	fi-	.	.	0.r	0.r
.	.	4ggn\	4ggn\	.	.	.	.	.	.	.	.	.	.
4r	.	.	.	.	.	.	.	4d\	-li-	.	.	.	.
.	.	8dd\	8dd\	.	.	8B\	-li-	.	.	.	.	.	.
4G\	.	4gn/	4gn/	.	.	4B\	-os	4g\	-os	.	.	.	.
!	!	!	!	!	!	!LO:LB:g=original	!	!	!	!	!	!	!
=106	=106	=106	=106	=106	=106	=106	=106	=106	=106	=106	=106	=106	=106
!	!	!	!	!LO:N:vis=00	!	!	!	!	!	!LO:N:vis=00	!	!	!
*	*	*	*	*	*	*	*ij	*	*ij	*	*	*	*
4E\	-	8r	8r	0.r	.	4e\	Fi-	4.g#\	fi-	0.r	.	.	.
.	.	4ee\	4ee\	.	.	.	.	.	.	.	.	.	.
4r	.	.	.	.	.	4d\	-li-	.	.	.	.	.	.
.	.	8b/	8b/	.	.	.	.	8g#\	-li-	.	.	.	.
4Gn\	6	4e/	4e/	.	.	4e\	-os	4g#\	-os	.	.	.	.
*	*	*	*	*	*	*	*Xij	*	*Xij	*	*	*	*
!	!	!LO:LB:g=original	!	!	!	!	!	!	!	!	!	!	!
=107	=107	=107	=107	=107	=107	=107	=107	=107	=107	=107	=107	=107	=107
4A\	43	8r	8r	.	.	8c#\L	ve-	(8g#\L	ve-	.	.	.	.
.	.	4aa\	4aa\	.	.	8d\J	.	8f#\J)	.	.	.	.	.
4r	.	.	.	.	.	4.d\	.	4.e\	.	.	.	.	.
.	.	8ee\	8ee\	.	.	.	.	.	.	.	.	.	.
4A\	.	4a/	4a/	.	.	.	.	.	.	.	.	.	.
.	.	.	.	.	.	8c#\	.	8f#\	.	.	.	.	.
=108	=108	=108	=108	=108	=108	=108	=108	=108	=108	=108	=108	=108	=108
4D\	7 5	8r	8r	.	.	4d\	-stros	4f#\	-stros	.	.	.	.
.	.	4dd\	4dd\	.	.	.	.	.	.	.	.	.	.
4r	.	.	.	.	.	4d\	be-	4f#\	be-	.	.	.	.
.	.	8a/	8a/	.	.	.	.	.	.	.	.	.	.
4E\	.	4d/	4d/	.	.	4d\	-ne-	4f#\	-ne-	.	.	.	.
!LO:LB:g=original	!	!	!	!	!	!	!	!	!	!	!	!	!
=109	=109	=109	=109	=109	=109	=109	=109	=109	=109	=109	=109	=109	=109
!	!	!	!	!	!	!	!	!	!	!	!	!LO:N:vis=00	!LO:N:vis=00
4A\	43	8r	8r	.	.	4d\	-di-	2e\	-di-	.	.	0.r	0.r
.	.	4a/	4a/	.	.	.	.	.	.	.	.	.	.
4r	.	.	.	.	.	8c#\L	.	.	.	.	.	.	.
.	.	8e/	8e/	.	.	8B\J	.	.	.	.	.	.	.
4A\	.	4A/	4A/	.	.	4c#\	-cti	4a\	-cti	.	.	.	.
!	!	!	!LO:LB:g=original	!	!	!	!	!	!	!	!	!	!
=110	=110	=110	=110	=110	=110	=110	=110	=110	=110	=110	=110	=110	=110
!	!	!	!	!LO:N:vis=00	!	!	!	!	!	!LO:N:vis=00	!	!	!
4D/	7 5	2.r	2.r	0.r	.	4c#\	vos	4a\	vos	0.r	.	.	.
4r	.	.	.	.	.	4d\	.	4b\	.	.	.	.	.
4E\	#	.	.	.	.	4B\	a	4g#X\	a	.	.	.	.
=111	=111	=111	=111	=111	=111	=111	=111	=111	=111	=111	=111	=111	=111
4A\	.	8r	8r	.	.	4.c#\	Do-	4.a\	Do-	.	.	.	.
.	.	4aa\	4aa\	.	.	.	.	.	.	.	.	.	.
4r	.	.	.	.	.	.	.	.	.	.	.	.	.
.	.	8ee\	8ee\	.	.	8c#\	-mi-	8a\	-mi-	.	.	.	.
4A\	.	4a/	4a/	.	.	4c#\	-no	4a\	-no	.	.	.	.
!	!	!	!	!	!	!	!	!LO:LB:g=original	!	!	!	!	!
=112	=112	=112	=112	=112	=112	=112	=112	=112	=112	=112	=112	=112	=112
!	!	!	!LO:N:vis=00	!	!	!	!	!	!	!	!	!	!
!	!	!LO:N:vis=00	!LO:TX:a:t=12	!	!	!	!	!	!	!	!	!	!
4A\	.	0.r	0.r	.	.	4c#\	qui	4a\	qu-	.	.	.	.
4r	.	.	.	.	.	4d\	fe-	4b\	-i	.	.	.	.
4A\	.	.	.	.	.	4c#\	-cit	4a\	fe-	.	.	.	.
!	!	!	!	!	!	!LO:LB:g=original	!	!	!	!	!	!	!
=113	=113	=113	=113	=113	=113	=113	=113	=113	=113	=113	=113	=113	=113
!	!	!	!	!	!	!	!	!	!	!	!	!LO:N:vis=00	!LO:N:vis=00
4E\	.	.	.	.	.	4B\	Cae-	2g#\	-cit	.	.	0.r	0.r
4D\	4 2	.	.	.	.	8c#\L	.	.	.	.	.	.	.
.	.	.	.	.	.	8d\J	.	.	.	.	.	.	.
4C#\	6	.	.	.	.	4e\	-lum	4a\	cae-	.	.	.	.
=114	=114	=114	=114	=114	=114	=114	=114	=114	=114	=114	=114	=114	=114
4D\	.	.	.	2.r	.	8c#\L	et	4a\	-lum	2.r	.	.	.
.	.	.	.	.	.	8B\J	.	.	.	.	.	.	.
4E\	6 4	.	.	.	.	4c#\	ter-	4a\	et	.	.	.	.
4EE/	3	.	.	.	.	8B\L	.	4g#\	ter-	.	.	.	.
.	.	.	.	.	.	8A\J	.	.	.	.	.	.	.
=115	=115	=115	=115	=115	=115	=115	=115	=115	=115	=115	=115	=115	=115
4AA/	.	.	.	4r	.	4A/	-ram	4a\	-ram	4r	.	.	.
4r	.	.	.	4A\	cae-	4r	.	4r	.	4cc#\	Cae-	.	.
4A\	.	.	.	4A\	-lu	4r	.	4r	.	4cc#\	-lum	.	.
=116	=116	=116	=116	=116	=116	=116	=116	=116	=116	=116	=116	=116	=116
!	!	!LO:N:vis=00	!LO:N:vis=00	!	!	!LO:N:vis=00	!	!LO:N:vis=00	!	!	!	!	!
4E\	.	0.r	0.r	4A\	cae-	0.r	.	0.r	.	2b\	cae-	.	.
4r	.	.	.	(8G#\L	.	.	.	.	.	.	.	.	.
.	.	.	.	8F#\J)	.	.	.	.	.	.	.	.	.
4C#/	.	.	.	4E\	-li	.	.	.	.	4a\	-li	.	.
!	!	!	!	!LO:LB:g=original	!	!	!	!	!	!	!	!	!
=117	=117	=117	=117	=117	=117	=117	=117	=117	=117	=117	=117	=117	=117
*	*	*	*	*	*ij	*	*	*	*	*	*ij	*	*
!	!	!	!	!	!	!	!	!	!	!	!	!LO:N:vis=00	!LO:N:vis=00
4D/	.	.	.	(4F#\	cae-	.	.	.	.	4a\	cae-	0.r	0.r
4r	.	.	.	4B\)	.	.	.	.	.	4dd\	.	.	.
4BB/	.	.	.	4A\	-li	.	.	.	.	4cc#\	-li	.	.
*	*	*	*	*	*Xij	*	*	*	*	*	*Xij	*	*
!LO:LB:g=original	!	!	!	!	!	!	!	!	!	!	!	!	!
=118	=118	=118	=118	=118	=118	=118	=118	=118	=118	=118	=118	=118	=118
4E\	.	.	.	4.G#\	Do-	.	.	.	.	4.b\	Do-	.	.
4r	.	.	.	.	.	.	.	.	.	.	.	.	.
.	.	.	.	8G#\	-mi-	.	.	.	.	8b\	-mi-	.	.
4D\	4 2	.	.	4G#\	-no	.	.	.	.	4b\	-no	.	.
!	!	!	!	!	!	!	!	!	!	!LO:LB:g=original	!	!	!
=119	=119	=119	=119	=119	=119	=119	=119	=119	=119	=119	=119	=119	=119
4C#/	6	.	.	(4A\	ter-	.	.	.	.	4r	.	.	.
4r	.	.	.	4F#\)	.	.	.	.	.	4ee\	ter-	.	.
4C#/	-5	.	.	4Gn\	-ram	.	.	.	.	4ee\	-ram	.	.
=120	=120	=120	=120	=120	=120	=120	=120	=120	=120	=120	=120	=120	=120
!	!	!LO:N:vis=00	!LO:N:vis=00	!	!	!LO:N:vis=00	!	!LO:N:vis=00	!	!	!	!	!
4D/	.	0.r	0.r	2F#\	au-	0.r	.	0.r	.	2a\	au-	.	.
4r	.	.	.	.	.	.	.	.	.	.	.	.	.
4D/	.	.	.	4F#\	-tem	.	.	.	.	4a\	-tem	.	.
=121	=121	=121	=121	=121	=121	=121	=121	=121	=121	=121	=121	=121	=121
!	!	!	!	!	!	!	!	!	!	!	!	!LO:N:vis=0	!LO:N:vis=0
4D/	.	.	.	(4B\	de-	.	.	.	.	4r	.	1.r	1.r
4r	.	.	.	4A\)	.	.	.	.	.	4ff#\	de-	.	.
4D/	.	.	.	4B\	-dit	.	.	.	.	4ff#\	-dit	.	.
=122	=122	=122	=122	=122	=122	=122	=122	=122	=122	=122	=122	=122	=122
4E\	.	.	.	4.G#X\	fi-	.	.	.	.	4.b\	Fi-	.	.
4r	.	.	.	.	.	.	.	.	.	.	.	.	.
.	.	.	.	8F#\	-li-	.	.	.	.	8b\	-li-	.	.
4C#/	.	.	.	4E\	-us	.	.	.	.	4cc#\	-is	.	.
=123	=123	=123	=123	=123	=123	=123	=123	=123	=123	=123	=123	=123	=123
4D/	.	.	.	8A\L	ho-	.	.	.	.	8cc#\L	ho-	2.r	2.r
.	.	.	.	8B\J	.	.	.	.	.	8dd\J	.	.	.
4r	.	.	.	4.G#\	-mi-	.	.	.	.	4.b\	.	.	.
4E\	.	.	.	.	.	.	.	.	.	.	.	.	.
.	.	.	.	8A\	.	.	.	.	.	8cc#\	-mi-	.	.
=124	=124	=124	=124	=124	=124	=124	=124	=124	=124	=124	=124	=124	=124
4AA/	.	4r	4r	4A\	-num	4r	.	4r	.	4cc\	-num	4r	4r
!LO:TX:a:t=T.	!	!	!	!	!	!	!	!	!	!	!	!	!
4r	.	4r	4r	4r	.	4r	.	4r	.	4r	.	4r	4r
4A\	-	4ee\	8r	4A\	non	4cn\	n(on)	4e\	non	4ee\	non	4a/	4a/
.	.	.	8aa\	.	.	.	.	.	.	.	.	.	.
!	!	!LO:LB:g=original	!	!LO:LB:g=original	!	!	!	!	!	!	!	!LO:LB:g=original	!LO:LB:g=original
=125	=125	=125	=125	=125	=125	=125	=125	=125	=125	=125	=125	=125	=125
4A\	.	4.ccn\	8aa\L	4.A\	mor-	4.A/	mor-	4.e\	mor-	4.ccn\	mor-	8f#/L	8a/L
.	.	.	8ee\	.	.	.	.	.	.	.	.	8f#/	8a/
4A\	.	.	8ccn\	.	.	.	.	.	.	.	.	8f#/	8a/
.	.	8cc\	8a\	8A\	-tu-	8A/	-tu-	8e\	-tu-	8cc\	-tu-	8f#/	8a/
4A\	.	4cc\	8cc\	4A\	-i	4A/	-i	4e\	-i	4cc\	-i	8f#/	8a/
.	.	.	8ee\J	.	.	.	.	.	.	.	.	8f#/J	8a/J
!LO:LB:g=original	!	!	!	!	!	!	!	!	!	!LO:LB:g=original	!	!	!
=126	=126	=126	=126	=126	=126	=126	=126	=126	=126	=126	=126	=126	=126
4D#X\	-7	4ccn\	8ff#\L	4D#X/	Lau-	4A/	lau-	4f#\	lau-	4ccn\	lau-	4f#/	4a/
.	.	.	8aa\	.	.	.	.	.	.	.	.	.	.
4D#\	.	4cc\	8aa\	4D#/	-da-	4A/	-da-	4f#\	-da-	4cc\	-da-	4f#/	4a/
.	.	.	8ff#\	.	.	.	.	.	.	.	.	.	.
4D#\	.	4cc\	8ff#\	8D#/	-bunt	8A/	-bunt	8f#\	-bunt	8cc\	-bunt	4r	4r
.	.	.	8aa\J	8D#/	te	8A/	te	8f#\	te	8cc\	te	.	.
!	!	!	!	!	!	!LO:LB:g=original	!	!LO:LB:g=original	!	!	!	!	!
=127	=127	=127	=127	=127	=127	=127	=127	=127	=127	=127	=127	=127	=127
4E\	#	4b\	8gg#X\L	4.E\	Do-	4.G#/	Do-	4.g#\	Do-	4.b\	Do-	8a/L	8ee\L
.	.	.	8ee\	.	.	.	.	.	.	.	.	8a/	8ee\
4E\	.	4b\	8ee\	.	.	.	.	.	.	.	.	8a/	8ee\
.	.	.	8b\	8E\	-mi-	8B\	-mi-	8g#\	-mi-	8b\	-mi-	8a/	8ee\
4E\	.	4b\	8b\	4E\	-ne	4B\	-ne	4g#\	-ne	4b\	-ne	8a/	8ee\
.	.	.	8ee\J	.	.	.	.	.	.	.	.	8a/J	8ee\J
=128	=128	=128	=128	=128	=128	=128	=128	=128	=128	=128	=128	=128	=128
4r	.	4r	4r	4r	.	4r	.	4r	.	4r	.	4r	4r
4E\	-	4b\	4ggn\	4E\	ne-	4e\	ne-	4gn\	ne-	4b\	ne-	4a/	4ee\
4E\	.	4ee\	4gg\	4E\	-que	4B\	-que	4g\	-que	4ee\	-que	4a/	4ee\
!	!	!	!LO:LB:g=original	!	!	!	!	!	!	!	!	!	!
=129	=129	=129	=129	=129	=129	=129	=129	=129	=129	=129	=129	=129	=129
4C#X/	6 5	4ee\	4ggn\	4C#/	om-	4A\	om-	4gn\	om-	4ee\	om-	4a/	4ee\
4C#/	.	4ee\	4gg\	4C#/	-nes	4A\	-nes	4g\	-nes	4ee\	-nes	4a/	4ee\
4C#/	.	4ee\	4gg\	8C#/	qui-	8A\	qui-	8g\	qui-	8ee\	qui	4a/	4ee\
.	.	.	.	8C#/	-de-	8A\	-de-	8g\	-de-	8ee\	de-	.	.
=130	=130	=130	=130	=130	=130	=130	=130	=130	=130	=130	=130	=130	=130
4D\	- 9	4ee\	4ffn\	4D\	-scen-	4A\	-scen-	4fn\	-scen-	4ee\	-scen-	4f#/	4dd\
4E\	8	8dd\L	4gg#\	4E\	-dunt	4A\	-dunt	4gn\	-dunt	8dd\L	-dunt	4f#/	4dd\
.	.	8cc\J	.	.	.	.	.	.	.	8cc#\J	.	.	.
4Fn\	6	4dd\	4aa\	4F#\	in	4d\	in	4a\	in	4dd\	in	4r	4r
=131	=131	=131	=131	=131	=131	=131	=131	=131	=131	=131	=131	=131	=131
!	!	!	!	!	!	!	!	!	!	!	!	!LO:N:vis=00	!LO:N:vis=00
4Gn\	-	4dd\	4bb-X\	4Gn\	in-	4B-X\	in-	4b-X\	in-	4dd\	in-	0.r	0.r
4A\	#	4cc#\	4ee\	4A\	-fer-	4c#X\	-fer-	4e\	-fe-	4cc#X\	-fer-	.	.
4A\	.	4cc#\	4ee\	4A\	-num	4e\	-num	4e\	-rum	4cc#\	-num	.	.
!	!	!LO:LB:g=original	!	!LO:LB:g=original	!	!	!	!	!	!LO:LB:g=original	!	!	!
=132	=132	=132	=132	=132	=132	=132	=132	=132	=132	=132	=132	=132	=132
4r	.	4r	4r	4r	.	4r	.	4r	.	4r	.	.	.
4A\	.	4ccn\	4aa\	4A\	Sed	4e\	sed	4a\	sed	4ccn\	Sed	.	.
4A\	.	4cc\	4aa\	8A\	nos	8e\	nos	8a\	nos	8cc\	nos	.	.
.	.	.	.	8A\	qui	8e\	qui	8a\	qui	8cc\	qui	.	.
!	!	!	!	!	!	!LO:LB:g=original	!	!	!	!	!	!	!
=133	=133	=133	=133	=133	=133	=133	=133	=133	=133	=133	=133	=133	=133
4E\	4	4b\	4aa\	4E\	vi-	4.e\	vi-	4a\	vi-	4b\	vi-	.	.
4E\	#	4b\	8gg#X\L	8E\	-vi-	.	.	8g#X\L	-vi-	8b\	-vi-	.	.
.	.	.	8ff#\J	8E\	-mus	8e\	-vi-	8f#\J	.	8b\	-mus	.	.
!	!	!	!	!	!	!	!	!LO:LB:g=original	!	!	!	!	!
4E\	.	4ee\	4gg#\	8E\	be-	4e\	-mus	4g#\	-mus	8ee\	be-	.	.
.	.	.	.	8E\	-ne-	.	.	.	.	8ee\	-ne-	.	.
!LO:LB:g=original	!	!	!	!	!	!	!	!	!	!	!	!	!
=134	=134	=134	=134	=134	=134	=134	=134	=134	=134	=134	=134	=134	=134
4Fn\	7	4ee\	4aa\	4.Fn\	-di-	8A\	be-	8a\	be-	4.ee\	-di-	.	.
.	.	.	.	.	.	8A\	-ne-	8a\	-ne-	.	.	.	.
4F\	6\	4dd#X\	4aa\	.	.	4A\	-di-	4a\	-di-	.	.	.	.
.	.	.	.	8F\	-ci-	.	.	.	.	8dd#X\	-ci-	.	.
4F\	.	4dd#\	4aa\	4F\	-mus	8A\	-ci-	8a\	-ci-	4dd#\	-mus	.	.
.	.	.	.	.	.	8A\	-mus	8a\	-mus	.	.	.	.
=135	=135	=135	=135	=135	=135	=135	=135	=135	=135	=135	=135	=135	=135
!	!	!	!	!	!	!	!	!	!	!	!	!LO:N:vis=0	!LO:N:vis=0
4E\	#	4ee\	4gg#X\	4.E\	Do-	4.B\	Do-	4g#\	Do-	4.ee\	Do-	1.r	1.r
4F#\	.	4ee\	4aa\	.	.	.	.	4a\	.	.	.	.	.
.	.	.	.	8F#X\	-mi-	8A\	-mi-	.	.	8ee\	-mi-	.	.
4G#\	.	4ddn\	4bb\	4G#X\	-no	4G#X/	-no	4b\	-mi-	4ee\	-no	.	.
=136	=136	=136	=136	=136	=136	=136	=136	=136	=136	=136	=136	=136	=136
4A\	98	4cc#\	4bb\	2A\	ex	4E/	ex	4b\	-no	2ee\	ex	.	.
4A\	.	4cc#\	8aa\L	.	.	4A/	hoc	8a\L	ex	.	.	.	.
.	.	.	8gg\J	.	.	.	.	8g#\J	.	.	.	.	.
4A\	.	[4ee\	4aa\	4A\	hoc	4cn\	.	4a\	hoc	4ee\	hoc	.	.
!	!	!	!LO:LB:g=original	!	!	!	!	!	!	!	!	!	!
=137	=137	=137	=137	=137	=137	=137	=137	=137	=137	=137	=137	=137	=137
4D/	-9	4ee\]	4ffn\	2D\	nunc	4d\	nunc	2fn\	nunc	4ee\	nunc	2.r	2.r
4D/	.	4a/	4ff\	.	.	4A\	.	.	.	8ddn\L	.	.	.
.	.	.	.	.	.	.	.	.	.	8ccn\J	.	.	.
!	!	!	!	!	!	!	!	!	!	!LO:LB:g=original	!	!	!
4D/	.	4dd\	4ff\	4D\	et	4A\	et	4f\	et	4dd\	et	.	.
=138	=138	=138	=138	=138	=138	=138	=138	=138	=138	=138	=138	=138	=138
4E\	#:	4b\	4gg#X\	4E\	us-	4G#X/	us-	4e\	us-	2b\	us-	4ee\	4gg#X\
4D\	.	4b\	4ee\	4D/	.	4B\	-que	4g#X\	-que	.	.	4ee\	4gg#\
4Cn/	6	4ccn\	4aa\	4Cn/	-que	4e\	in	4a\	in	4ccn\	-que	4ff#\	4aa\
!	!	!LO:LB:g=original	!	!LO:LB:g=original	!	!LO:LB:g=original	!	!	!	!	!	!	!
=139	=139	=139	=139	=139	=139	=139	=139	=139	=139	=139	=139	=139	=139
4D\	.	4ffn\	4bb\	4D\	in	4A\	sae-	4fn\	sae-	4b\	in	4gg#X\	4bb\
4E\	4	4ee\	4aa\	4E\	sae-	4A\	.	4.e\	.	4cc#\	sae-	4ff#\	4aa\
4EE/	#	4b/	4gg#X\	4EE/	-cu-	4G#X/	-cu-	.	.	8b\L	-cu-	4ee\	4gg#X\
.	.	.	.	.	.	.	.	8e\	-cu-	8a\J	.	.	.
!	!	!	!	!	!	!	!	!LO:LB:g=original	!	!	!	!	!LO:LB:g=original
=140	=140	=140	=140	=140	=140	=140	=140	=140	=140	=140	=140	=140	=140
!	!	!	!LO:TX:a:t=P:problem:mixed beam	!	!	!	!	!	!	!	!	!	!
4AA/	.	8.cc#\L	8.aa\L	4AA/	-lum	4A\	-lum.	4e\	-lum	4a\	-lum	4ee\	4aa\
.	.	16cc#\K	16a/Jk	.	.	.	.	.	.	.	.	.	.
4r	.	8.cc#\	8.ee\L	4r	.	4r	.	4r	.	4r	.	4r	4r
.	.	16a\K	16ccn\Jk	.	.	.	.	.	.	.	.	.	.
4E\	#7	8.b\	8.dd\L	4r	.	4r	.	4r	.	4r	.	4r	4r
!	!	!LO:TX:a:t=#	!	!	!	!	!	!	!	!	!	!	!
.	.	16g#\Jk	16b\Jk	.	.	.	.	.	.	.	.	.	.
!LO:LB:g=original	!	!	!	!	!	!	!	!	!	!	!	!LO:LB:g=original	!
=141	=141	=141	=141	=141	=141	=141	=141	=141	=141	=141	=141	=141	=141
!	!	!	!	!	!	!LO:TX:a:t=3	!	!LO:N:vis=00	!	!LO:N:vis=00	!	!	!
!	!	!	!	!LO:N:vis=0	!	!LO:N:vis=0	!	!	!	!	!	!	!
4A\	.	8.a\L	8.ccn\L	1.r	.	1.r	.	0.r	.	0.r	.	4ee\	4aa\
.	.	16cc#\K	16ee\Jk	.	.	.	.	.	.	.	.	.	.
4r	.	8.cc#\	8.ee\L	.	.	.	.	.	.	.	.	4r	4r
.	.	16a\K	16cc\Jk	.	.	.	.	.	.	.	.	.	.
4E\	7 #	8.b\	8.dd\L	.	.	.	.	.	.	.	.	4r	4r
.	.	16g#\Jk	16b\Jk	.	.	.	.	.	.	.	.	.	.
=142	=142	=142	=142	=142	=142	=142	=142	=142	=142	=142	=142	=142	=142
4A\	.	8a/L	8ccn\L	.	.	.	.	.	.	.	.	8a/L	8a/L
.	.	8cn/J	8a\J	.	.	.	.	.	.	.	.	8a/	8a/
4r	.	4B/	4.g#X/	.	.	.	.	.	.	.	.	8a/	8a/
.	.	.	.	.	.	.	.	.	.	.	.	8a/	8a/
4E\	7 #	4c/	.	.	.	.	.	.	.	.	.	8a/	8ee/
.	.	.	8a/	.	.	.	.	.	.	.	.	8a/J	8ee/J
!	!	!	!LO:LB:g=original	!	!	!	!	!	!	!	!	!	!
=143	=143	=143	=143	=143	=143	=143	=143	=143	=143	=143	=143	=143	=143
!LO:TX:a:t=Solo.	!	!	!	!	!	!	!	!	!	!	!	!	!
4AA/	.	4c#/	4a/	4.cn\	Glo-	2.r	.	.	.	.	.	4ee\	4aa\
4r	.	4r	4r	.	.	.	.	.	.	.	.	4ee\	4aa\
.	.	.	.	8B\	-ri-	.	.	.	.	.	.	.	.
4D/	-6	4r	4r	4A\	-a	.	.	.	.	.	.	4ee\	4gg#X\
=144	=144	=144	=144	=144	=144	=144	=144	=144	=144	=144	=144	=144	=144
!	!	!	!LO:N:vis=0	!	!	!	!	!	!	!	!	!	!
!	!	!LO:N:vis=0	!LO:TX:a:t=3	!	!	!	!	!	!	!	!	!	!
4E\	#	1.r	1.r	2G#\	Pa-	4e\	Glo-	.	.	.	.	4ee\	4aa\
4r	.	.	.	.	.	4d\	-ri-	.	.	.	.	4r	4r
4AA/	.	.	.	4A\	-tri	4cn\	-a	.	.	.	.	4r	4r
=145	=145	=145	=145	=145	=145	=145	=145	=145	=145	=145	=145	=145	=145
!	!	!	!	!LO:N:vis=0	!	!	!	!LO:N:vis=0	!	!	!	!LO:TX:a:t=3	!LO:N:vis=0
!	!	!	!	!	!	!	!	!	!	!	!	!LO:N:vis=0	!
4E\	#	.	.	1.r	.	4.B\	Fi-	1.r	.	2.r	.	2.r	2.r
4r	.	.	.	.	.	.	.	.	.	.	.	.	.
.	.	.	.	.	.	8B\	-li-	.	.	.	.	.	.
4D/	.	.	.	.	.	4B\	-o	.	.	.	.	.	.
!	!	!LO:PB:g=original	!	!	!	!	!	!	!	!	!	!	!
=146	=146	=146	=146	=146	=146	=146	=146	=146	=146	=146	=146	=146	=146
4C#/	.	4r	2.r	.	.	2A/	et	.	.	4r	.	2.r	2.r
4r	.	4ee\	.	.	.	.	.	.	.	4ee\	et	.	.
4C#/	.	4a/	.	.	.	4A/	Spi-	.	.	4a\	Spi-	.	.
=147	=147	=147	=147	=147	=147	=147	=147	=147	=147	=147	=147	=147	=147
4D/	.	8a/L	8ffn\L	2.r	.	4.A/	-ri-	2.r	.	4.ffn\	-ri-	8a/L	8aL
.	.	8a/	8ff\	.	.	.	.	.	.	.	.	8a/	8a/
4r	.	8a/	8ff\	.	.	.	.	.	.	.	.	8a/	8a/
.	.	8a/	8ff\	.	.	8A/	-tu-	.	.	8ff\	-tu-	8a/	8a/
4D/	.	8a/	8ff\	.	.	4A/	-i	.	.	4ff\	-i	8a/	8a/
.	.	8a/J	8ff\J	.	.	.	.	.	.	.	.	8a/J	8a/J
!	!	!	!	!	!	!LO:LB:g=original	!	!	!	!	!	!	!
=148	=148	=148	=148	=148	=148	=148	=148	=148	=148	=148	=148	=148	=148
4E\	98 #	8g#X/L	8ff#\L	4r	.	4r	.	2g#X\	et	4.ff\	et	4a/	4ee\
.	.	8g#/	8ff#\	.	.	.	.	.	.	.	.	.	.
4r	.	8g#/	8ee\	4E\	et	4B\	et	.	.	.	.	4r	4r
.	.	8g#/	8ee\	.	.	.	.	.	.	8ee\	Spi-	.	.
4E\	#7	8g#/	8dd\	4E\	Spi-	4B\	Spi-	4g#\	Spi-	4dd\	.	4r	4r
.	.	8g#/J	8dd\J	.	.	.	.	.	.	.	.	.	.
!LO:LB:g=original	!	!	!	!	!	!	!	!	!	!LO:LB:g=original	!	!	!
=149	=149	=149	=149	=149	=149	=149	=149	=149	=149	=149	=149	=149	=149
!	!	!LO:TX:a:t=P:problem:mixed beam	!	!	!	!	!	!	!	!	!	!LO:TX:a:t=3	!LO:N:vis=0
!	!	!	!	!	!	!	!	!	!	!	!	!LO:N:vis=0	!
4A\	-	8e/L	8cc\L	4.A\	-ri-	4.A\	-ri-	4.a\	-ri-	4.ccn\	-ri-	1.r	1.r
.	.	8e/	8aa\	.	.	.	.	.	.	.	.	.	.
4r	.	8ee\	8aa\	.	.	.	.	.	.	.	.	.	.
.	.	8ee\	8aa\	8A\	-tu-	8A\	-tu-	8a\	-tu-	8cc\	-tu-	.	.
4AA/	.	8ee\	8aa\	4A\	-i	4A\	-i	4a\	-i	4cc\	-i	.	.
.	.	8ee\J	8aa\J	.	.	.	.	.	.	.	.	.	.
=150	=150	=150	=150	=150	=150	=150	=150	=150	=150	=150	=150	=150	=150
4D\	6	8ff#\L	8aa\L	4D\	San-	4B\	San-	4fn\	San-	8dd\L	San-	.	.
.	.	8ff#\	8aa\	.	.	.	.	.	.	8cc\J	.	.	.
4r	.	8ee\	8aa\	2E\	.	4A\	.	2e\	.	2b\	.	.	.
.	.	8ee\	8aa\	.	.	.	.	.	.	.	.	.	.
4E\	#	8b\	8gg#X\	.	.	4G#X/	.	.	.	.	.	.	.
.	.	8b\J	8gg#\J	.	.	.	.	.	.	.	.	.	.
!	!	!	!	!LO:LB:g=original	!	!	!	!	!	!	!	!	!
=151	=151	=151	=151	=151	=151	=151	=151	=151	=151	=151	=151	=151	=151
2.AA/	.	2a/	4aa\	2.AA/	-cto.	2.A\	-cto.	2.e\	-cto.	2.a\	-cto.	2.r	2.r
.	.	.	4a/	.	.	.	.	.	.	.	.	.	.
.	.	4r	4r	.	.	.	.	.	.	.	.	.	.
!LO:LB:g=original	!	!LO:LB:g=original	!LO:LB:g=original	!	!	!	!	!LO:PB:g=original	!	!LO:LB:g=original	!	!	!LO:LB:g=original
=152||	=152||	=152||	=152||	=152||	=152||	=152||	=152||	=152||	=152||	=152||	=152||	=152||	=152||
*k[f#c#]	*	*k[f#c#]	*k[f#c#]	*k[f#c#]	*	*k[f#c#]	*	*k[f#c#]	*	*k[f#c#]	*	*k[f#c#]	*k[f#c#]
*M4/4	*	*M4/4	*M4/4	*M4/4	*	*M4/4	*	*M4/4	*	*M4/4	*	*M4/4	*M4/4
*met(c)	*	*met(c)	*met(c)	*met(c)	*	*met(c)	*	*met(c)	*	*met(c)	*	*met(c)	*met(c)
!LO:TX:a:t=Allegro Tut	!	!LO:TX:a:t=All(egr)o	!	!	!	!	!	!	!	!	!	!LO:TX:b:t=Sicut erat	!LO:TX:b:t=Sicut erat
8D\L	.	16ff#\LL	16dd\LL	(8D\L	Si-	4A\	Si-	8f#\L	Si-	4dd\	Si-	8dd\L	8ff#\L
.	.	16ff#\	16bb\	.	.	.	.	.	.	.	.	.	.
8E\	.	16ff#\	16bb\	8E\J)	.	.	.	8g\J	.	.	.	16dd\L	16ff#\L
.	.	16ff#\JJ	16bb\JJ	.	.	.	.	.	.	.	.	16dd\JJ	16ff#\JJ
8F#\	.	16ff#\LL	16bb\LL	(8F#\L	-cut	4A\	-cut	8a\L	-cut	4dd\	-cut	8dd\L	8ff#\L
.	.	16ff#\	16bb\	.	.	.	.	.	.	.	.	.	.
8D\J	.	16ff#\	16bb\	8G\J)	.	.	.	8f#\J	.	.	.	8dd\	8ff#\
.	.	16ff#\JJ	16bb\JJ	.	.	.	.	.	.	.	.	.	.
8A\L	4	16ee\LL	16bb\LL	8A\	e-	8A\	e-	8e\	e-	8dd\	e-	8dd\	8ff#\
.	.	16ee\	16aa\	.	.	.	.	.	.	.	.	.	.
8A\	3	16ee\	16aa\	8A\	-rat	8A\	-rat	8e\	-rat	8cc#\	-rat	8a\J	8ee\J
.	.	16ee\JJ	16aa\JJ	.	.	.	.	.	.	.	.	.	.
8A\	.	16ee\LL	16aa\LL	8A\	in	8A\	in	8e\	in	8cc#\	in	8a\L	8ee\L
.	.	16ee\	16aa\	.	.	.	.	.	.	.	.	.	.
8F#\J	6	16aa\	16bb\	8F#\	prin-	8d\	prin-	8a\	prin-	8dd\	prin-	8ff#\J	8aa\J
.	.	16aa\JJ	16bb\JJ	.	.	.	.	.	.	.	.	.	.
!	!	!	!	!	!	!LO:LB:g=original	!	!	!	!	!	!LO:LB:g=original	!
=153	=153	=153	=153	=153	=153	=153	=153	=153	=153	=153	=153	=153	=153
8G\L	9	16aa\LL	16bb\LL	8G\	-ci-	8d\	-ci-	8a\	-ci-	8b\	-ci-	16ff#\LL	16aa\LL
.	.	16gg\	16bb\	.	.	.	.	.	.	.	.	16ee\	16gg\
8A\	8	16gg\	16bb\	8A\	-pi-	8d\	-pi-	16g\LL	-pi-	8cc#\	-pi-	16ee\	16gg\
.	.	16gg\JJ	16bb\JJ	.	.	.	.	16f#\JJ	.	.	.	16ee\JJ	16gg\JJ
8B\	.	16gg\LL	16bb\LL	8B\	-o	8d\	-o	8g\	-o	8dd\	-o	8ee\L	8gg\L
.	.	16gg\	16aa\	.	.	.	.	.	.	.	.	.	.
8c#\J	.	16gg\	16aa\	8c#\	et	8A/	et	8g\	et	8ee\	et	8ee\	8gg\J
.	.	16gg\JJ	16aa\JJ	.	.	.	.	.	.	.	.	.	.
!LO:TX:a:t=P:problem:mixed beam	!	!	!	!	!	!	!	!	!	!	!	!	!
8d\L	.	16gg\LL	16gg\LL	4d\	nunc	4A/	nunc	4f#\	nunc	4a\	nunc	8ee\	8gg\L
.	.	16ff#\	16gg\	.	.	.	.	.	.	.	.	.	.
8D/J	43	16ff#\	16gg\	.	.	.	.	.	.	.	.	8dd\J	8ff#\J
.	.	16ff#\JJ	16gg\JJ	.	.	.	.	.	.	.	.	.	.
8r	.	16ff#\LL	16ff#\LL	8r	.	8r	.	8r	.	8r	.	8r	8r
.	.	16dd\	16ff#\	.	.	.	.	.	.	.	.	.	.
8d\	.	16dd\	16ff#\	8d\	et	8d\	et	8a\	et	8dd\	et	8dd\	8ff#\
.	.	16dd\JJ	16ff#\JJ	.	.	.	.	.	.	.	.	.	.
=154	=154	=154	=154	=154	=154	=154	=154	=154	=154	=154	=154	=154	=154
8B\L	.	16dd\LL	16ff#\LL	8B\L	nunc	4B\	nunc	4f#\	nunc	4dd\	nunc	8dd\L	8ff#\L
.	.	16dd\	16ff#\	.	.	.	.	.	.	.	.	.	.
8A\	.	16dd\	16ff#\	8A\J	.	.	.	.	.	.	.	16dd\L	16ff#\L
.	.	16dd\JJ	16ff#\JJ	.	.	.	.	.	.	.	.	16dd\JJ	16ff#\JJ
8G#X\	6	16dd\LL	16ee\LL	8G#X\L	et	4B\	et	4e\	et	8dd\L	et	8a/L	8ee\L
.	.	16dd\	16ee\	.	.	.	.	.	.	.	.	.	.
8E\J	#	16dd\	16gg#X\	8F#\J	.	.	.	.	.	8ee\J	.	8a/J	8ee\J
.	.	16dd\JJ	16gg#\JJ	.	.	.	.	.	.	.	.	.	.
!	!	!LO:LB:g=original	!LO:LB:g=original	!LO:LB:g=original	!	!	!	!	!	!	!	!	!
!	!	!	!	!LO:TX:a:t=P:problem:mixed beam	!	!	!	!	!	!	!	!	!
8A\L	.	16cc#\LL	16aa\LL	8A\L	sem-	8A\L	sem-	4e\	sem-	8cc#\L	sem-	8a/L	8ee\L
.	.	16cc#\	16aa\	.	.	.	.	.	.	.	.	.	.
8G#\	.	16cc#\	16aa\	8G#\	.	8B\J	.	.	.	8b\	.	8a/	8ee\
.	.	16cc#\JJ	16aa\JJ	.	.	.	.	.	.	.	.	.	.
8A\	.	16cc#\LL	16aa\LL	8A\	.	4A\	.	4a\	.	8cc#\	.	8ee/	8aa\
.	.	16cc#\	16aa\	.	.	.	.	.	.	.	.	.	.
8C#\J	.	16ee\	16aa\	8C#/J	.	.	.	.	.	8ee\J	.	8ee/J	8aa\J
.	.	16ee\JJ	16aa\JJ	.	.	.	.	.	.	.	.	.	.
!	!	!	!	!	!	!	!	!	!	!LO:LB:g=original	!	!	!
=155	=155	=155	=155	=155	=155	=155	=155	=155	=155	=155	=155	=155	=155
8D/L	.	16b\LL	8aa\L	8D/L	.	4F#/	.	4a\	.	8b\L	.	8a/L	8aa\L
.	.	16b\	.	.	.	.	.	.	.	.	.	.	.
8BB/	.	16b\	8bb\	8BB/	.	.	.	.	.	16cc#\L	.	8a/	8aa\
.	.	16b\JJ	.	.	.	.	.	.	.	16b\JJ	.	.	.
8E/	#	16b\LL	8.gg#X\	8E/	.	4E/	.	8.g#X\L	.	4b\	.	8ee/	8gg#X\
.	.	16b\	.	.	.	.	.	.	.	.	.	.	.
8EE/J	.	16b\	.	8EE/J	.	.	.	.	.	.	.	8ee/J	8gg#\J
.	.	16b\JJ	16aa\Jk	.	.	.	.	16g#\Jk	.	.	.	.	.
!LO:LB:g=original	!	!	!	!	!	!	!	!LO:LB:g=original	!	!	!	!	!
8AA/L	.	16cc#\LL	16aa\LL	8AA/	-per	8E/	-per	8a\	-per	8a\	-per	4ee\	4aa\
.	.	16cc#\	16aa\	.	.	.	.	.	.	.	.	.	.
8BB/	.	16cc#\	16aa\	16AA/	et	16c#\	et	16a\	et	16cc#\	et	.	.
.	.	16cc#\JJ	16aa\JJ	16BB/	in	16B\	in	16a\	in	16dd\	in	.	.
8C#/	.	16cc#\LL	16aa\LL	8.C#/	sae-	8A\	sae-	8a\	sae-	8ee\	sae-	4r	4r
.	.	16cc#\	16aa\	.	.	.	.	.	.	.	.	.	.
8D/J	.	16b\	16aa\	.	.	8d\	-cu-	8a\	-cu-	8ff#\	-cu-	.	.
.	.	16b\JJ	16aa\JJ	16D/	-cu-	.	.	.	.	.	.	.	.
!	!	!	!	!	!	!LO:LB:g=original	!	!	!	!	!	!	!
=156	=156	=156	=156	=156	=156	=156	=156	=156	=156	=156	=156	=156	=156
8E\L	#	16b\LL	16gg#X\LL	8E\L	-la	4B\	-la	4g#X\	-la	4b\	-la	1r	1r
.	.	16b\	16gg#\	.	.	.	.	.	.	.	.	.	.
8F#\	.	16b\	16aa\	8F#\J	.	.	.	.	.	.	.	.	.
.	.	16b\JJ	16aa\JJ	.	.	.	.	.	.	.	.	.	.
8G#X\	6	16ee\LL	16bb\LL	8G#X\	sae-	8B\	sae-	8g#\	sae-	8ee\	sae-	.	.
.	.	16ee\	16bb\	.	.	.	.	.	.	.	.	.	.
8E\J	7	16dd\	16gg#\	8E\	-cu-	8B\	-cu-	8g#\	-cu-	8dd\	-cu-	.	.
.	.	16dd\JJ	16gg#\JJ	.	.	.	.	.	.	.	.	.	.
!LO:TX:a:t=P:problem:mixed beam	!	!	!	!	!	!	!	!	!	!	!	!	!
8A\L	.	8cc#\L	16aa\LL	8A\	-lo-	8c#\	-lo-	8a\	-lo-	8cc#\	-lo-	.	.
.	.	.	16ee\	.	.	.	.	.	.	.	.	.	.
8AA/	.	8cc#\	16cc#\	8BB/	-rum	8c#\	-rum	8a\	-rum	8cc#\	-rum	.	.
.	.	.	16ee\JJ	.	.	.	.	.	.	.	.	.	.
!	!	!	!LO:TX:a:t=P:problem:mixed beam	!	!	!	!	!	!	!	!	!	!
8AA/	.	8cc#\	16a/LL	8A\	a-	8c#\	a-	8a\	a-	8ee\	a-	.	.
.	.	.	16aa\	.	.	.	.	.	.	.	.	.	.
8C#/J	6 -5	8ee\J	16ggn\	8C#/	-men	8c#\	-men	8a\	-men	8ee\	-men	.	.
.	.	.	16aa\JJ	.	.	.	.	.	.	.	.	.	.
!	!	!	!LO:PB:g=original	!	!	!	!	!	!	!	!	!	!LO:LB:g=original
=157	=157	=157	=157	=157	=157	=157	=157	=157	=157	=157	=157	=157	=157
8D\L	98	8ee\L	8ff#\L	(8D\L	a-	4.A\	a-	8f#\L	a-	8ee\L	a-	8ff#\L	8aa\L
8E\	.	8a\	8gg\	8E\J)	.	.	.	8g\J	.	8a\J	.	8ee\	8gg\
8F#\	.	8dd\	8.aa\	(8F#\L	.	.	.	8a\L	-men	4dd\	-men	8dd\	8ff#\
8G#X\J	.	8dd\J	.	8G#X\J)	.	8d\	-men	8b\J	.	.	.	8a\J	8ee\J
.	.	.	16bb\Jk	.	.	.	.	.	.	.	.	.	.
!	!	!LO:LB:g=original	!	!LO:LB:g=original	!	!	!	!	!	!	!	!	!
8A\L	.	8cc#\L	8ee\L	8A\L	.	8A\L	a-	4.e\	a-	8cc#\L	a-	8a/L	8ee\L
8Gn\	.	16b\L	16ff#\L	8Gn\	.	8B\	.	.	.	16b\L	.	8a/J	8ee\J
.	.	16cc#\JJ	16gg\J	.	.	.	.	.	.	16cc#\JJ	.	.	.
!	!	!	!	!	!	!	!	!	!	!LO:LB:g=original	!	!	!
8A\	.	8dd\L	8aa\	8A\	.	8A\	.	.	.	8dd\L	.	8r	8r
8F#\J	6	[8ff#\J	8aa\J	8F#\J	.	8d\J	.	8a\	.	[8ff#\J	.	8ff#\	8aa\
=158	=158	=158	=158	=158	=158	=158	=158	=158	=158	=158	=158	=158	=158
8G\L	7	8ff#\L]	8bb\L	8G\L	.	4B\	.	8b\L	.	8ff#\L]	.	8gg\L	8bb\L
8F#\	.	16ee\L	8aa\J	8F#\	.	.	.	8a\	.	16ee\L	.	8ff#\	8aa\
.	.	16dd\JJ	.	.	.	.	.	.	.	16dd\JJ	.	.	.
8G\	6	8ee\L	16bb\LL	8G\	.	4e\	.	8b\	.	4ee\	.	8gg\	8bb\
.	.	.	16gg\	.	.	.	.	.	.	.	.	.	.
8E\J	.	8ee\J	16aa\	8E\J	.	.	.	8g\J	.	.	.	8ee\J	8gg\J
.	.	.	16bb\JJ	.	.	.	.	.	.	.	.	.	.
8F#\L	7	8ee\L	8aa\L	8F#\L	.	4A\	.	8a\L	.	8ee\L	.	8ff#\L	8aa\L
8E\	.	16dd\L	8gg\	8E\	.	.	.	8g\	.	8a\J	.	8ee\	8gg\
.	.	16cc#\JJ	.	.	.	.	.	.	.	.	.	.	.
8F#\	6	8dd\L	8aa\	8F#\	.	8d\	.	8a\	.	8dd\	.	8ff#\	8aa\
8D\J	.	8dd\J	8ff#\J	8D\J	.	8d\	-men	8f#\J	-men	8dd\	-men	8dd\J	8ff#\J
!LO:LB:g=original	!	!	!	!	!	!	!	!	!	!	!	!	!
=159	=159	=159	=159	=159	=159	=159	=159	=159	=159	=159	=159	=159	=159
!LO:TX:a:t=P:problem:mixed beam	!	!	!	!LO:TX:a:t=P:problem:mixed beam	!	!	!	!	!	!	!	!	!
*	*	*	*	*	*	*	*	*	*	*	*ij	*	*
8E/L	7	8dd\L	8gg\L	8E/L	.	4B\	a-	8g\L	a-	4dd\	a-	8ee\L	8ff#\L
8G/	.	8dd\	8gg\	8G/	.	.	.	16a\L	.	.	.	16ee\L	16gg\L
.	.	.	.	.	.	.	.	16b\JJ	.	.	.	16ee\JJ	16gg\JJ
!	!	!	!	!	!	!	!	!LO:LB:g=original	!	!	!	!	!
8A/	7	8cc#\	8.ggT\	8A/	.	4c#\	.	8a\L	.	4cc#\	-men	8ee\L	8gg\L
8AA\J	.	8cc#\J	.	8AA\J	.	.	.	8g\J	.	.	.	8ee\J	8gg\J
.	.	.	16gg\Jk	.	.	.	.	.	.	.	.	.	.
*	*	*	*	*	*	*	*	*	*	*	*Xij	*	*
!LO:TX:a:t=P:problem:mixed beam	!	!	!	!	!	!LO:LB:g=original	!	!	!	!	!	!LO:LB:g=original	!
8D/L	.	8dd\L	8ff#\L	8D/	-men	4A\	-men	4f#\	.	4.dd\	a-	8dd\L	8ff#\L
8d\	.	8dd\	8ff#\	8d\L	a-	.	.	.	.	.	.	8a\J	8ee\J
8G\	6	8dd\	8.ff#\	8G\	.	8B\L	a-	4e\	.	.	.	8dd\L	8ff#\L
8A\J	.	8cc#\J	.	8A\J	.	8A\J	.	.	.	8cc#\	.	16a\L	16ee\L
.	.	.	16ee\Jk	.	.	.	.	.	.	.	.	16f#\JJ	16dd\JJ
=160	=160	=160	=160	=160	=160	=160	=160	=160	=160	=160	=160	=160	=160
4D/	.	4dd\	4dd\	4D/	-men.	4A\	-men.	4f#\	-men.	4dd\	-men.	4f#/	4dd\
4r	.	4r	4r	4r	.	4r	.	4r	.	4r	.	4r	4r
2r	.	2r	2r	2r	.	2r	.	2r	.	2r	.	2r	2r
==	==	==	==	==	==	==	==	==	==	==	==	==	==
*-	*-	*-	*-	*-	*-	*-	*-	*-	*-	*-	*-	*-	*-
!!!system-decoration: [(s1,s2)][(s3,s4,s5,s6)][(s7,s8)][(s9)]
!!!ENC: Berenika Jozajtis
!!!END: 2024-05-24
!!!ENC: Leszek Kubiak
!!!END: 2024-08-08
